!!!!SEGMENT: pl-cz--iii-33--001_bolehovsky-josef--missa-pastoralis-in-d-kyrie.krn
!!!cenid: 18xx:672
!!!COM: Bolehovský, Josef
!!!COM-rismid: pe30000404
!!!CDT: 1743-1811
!!!CNT: Czech
!!!OPR: Missa Pastoralis in D
!!!OTL: Kyrie
!!!OMV: 001
!!!PDT: 1821
!!!AGN: Sacred; Mass
!!!SMS-siglum: PL-CZ
!!!SMS-shelfmark: III-33
!!!SMS-shelfwork: 001-001 M
!!!SMS-variant:
!!!SMS-altvar:
!!!NIFC-rismid: 300237609
!!!URL-scan: http://repozytorium.nifc.pl/skany/pl-cz-nut--iii-33
!!!ONB-nifc: UWAGA: części Mszy: Kyrie, Christe, Gloria, Credo, Sanctus, Benedictus, Agnus Dei
!!!key:
**kern	**fba	**dynam	**kern	**dynam	**kern	**dynam	**kern	**text	**dynam	**kern	**text	**kern	**text	**dynam	**kern	**text	**dynam	**kern	**kern	**kern	**kern	**kern	**dynam
*part12	*part12	*part12	*part11	*part11	*part10	*part10	*part9	*part9	*part9	*part8	*part8	*part7	*part7	*part7	*part6	*part6	*part6	*part5	*part4	*part3	*part2	*part1	*part1
*staff12	*staff12	*	*staff11	*	*staff10	*	*staff9	*staff9	*	*staff8	*staff8	*staff7	*staff7	*	*staff6	*staff6	*	*staff5	*staff4	*staff3	*staff2	*staff1	*
*Iorgan	*	*	*Ivioln	*	*Ivioln	*	*Iempty	*	*	*Itenor	*	*Ialto	*	*	*Ivox	*	*	*Itimpa	*Iempty	*Icor	*Iclars	*Iclars	*
*I"Organo	*	*	*I"Violino IIdo	*	*I"Violino 1mo	*	*I"Baſso.	*	*	*I"Tenore	*	*I"Alto	*	*	*I"Canto	*	*	*I"Timpano in D.	*I"Clarino Prinzipale in D.	*I"Corni due in D.	*I"Clarinetto 2do	*I"Clarinetto 1mo	*
*I'org	*	*	*I'vl 2	*	*I'vl 1	*	*I'B	*	*	*I'T	*	*I'A	*	*	*I'S	*	*	*I'timp	*I'clar	*I'cor	*I'cl 2	*I'cl 1	*
*clefF4	*	*	*clefG2	*	*clefG2	*	*clefF4	*	*	*clefC4	*	*clefC3	*	*	*clefC1	*	*	*clefF4	*clefG2	*clefG2	*clefG2	*clefG2	*
*	*	*	*	*	*	*	*	*	*	*	*	*	*	*	*	*	*	*	*ITrd-1c-2	*ITrd6c10	*	*	*
*k[f#c#]	*	*	*k[f#c#]	*	*k[f#c#]	*	*k[f#c#]	*	*	*k[f#c#]	*	*k[c#f#]	*	*	*k[f#c#]	*	*	*k[]	*k[f#c#]	*k[f#c#]	*k[f#c#]	*k[f#c#]	*
*D:	*	*	*D:	*	*D:	*	*D:	*	*	*D:	*	*D:	*	*	*D:	*	*	*	*	*	*D:	*D:	*
*M2/4	*	*	*M2/4	*	*M2/4	*	*M2/4	*	*	*M2/4	*	*M2/4	*	*	*M2/4	*	*	*M2/4	*M2/4	*M2/4	*M2/4	*M2/4	*
=1	=1	=1	=1	=1	=1	=1	=1	=1	=1	=1	=1	=1	=1	=1	=1	=1	=1	=1	=1	=1	=1	=1	=1
*	*	*	*	*	*	*	*	*	*	*	*	*	*	*	*	*	*	*	*	*^	*	*	*
!LO:TX:a:t=P:problem:mixed beam	!	!	!	!	!	!	!	!	!	!	!	!	!	!	!	!	!	!	!	!	!	!	!	!
!LO:TX:a:i:t=Tutti	!	!	!	!	!	!	!	!	!	!	!	!	!	!	!	!	!	!	!	!	!	!	!	!
!LO:TX:b:i:t=Kyrie	!	!	!LO:TX:rj:b:t=Kyrie	!	!LO:TX:rj:b:t=Kyrie	!	!	!	!	!	!	!	!	!	!LO:TX:a:i:t=Tutti	!	!	!	!	!	!	!	!	!
!LO:TX:rj:a:i:t=allo	!	!	!LO:TX:a:i:t=allo	!	!LO:TX:a:i:t=allo&colon;	!	!LO:TX:a:i:t=allo.	!	!	!LO:TX:rj:a:i:t=allo.	!	!LO:TX:a:t=allo	!	!	!LO:TX:rj:a:t=allo	!	!	!LO:TX:a:t=Kyrie Tacet	!LO:TX:a:t=allo&colon;	!LO:TX:a:i:t=allo.	!	!LO:TX:a:i:t=allo.	!LO:TX:a:i:t=allo.	!
8D\L	8_ 3_	.	4.f#/	.	4.dd\	.	8D\L	Ky-	.	4A\	Ky-	4.f#\	Ky-	.	4.dd\	Ky-	.	2ryy	8dd/L 8d/	4.d/	4.F#\	4.f#/	4.dd\	.
8F#\	.	.	.	.	.	.	8F#\	.	.	.	.	.	.	.	.	.	.	.	16dd/L 16d/	.	.	.	.	.
.	.	.	.	.	.	.	.	.	.	.	.	.	.	.	.	.	.	.	16dd/JJ 16d/	.	.	.	.	.
8A\	4 6	.	.	.	.	.	8A\J	.	.	4A\	-ri-	.	.	.	.	.	.	.	8dd/L 8d/	.	.	.	.	.
8AA/J	3 3	.	(16g/LL	.	(16ee\LL	.	8AA/	-ri-	.	.	.	(16g\LL	-ri-	.	(16ee\LL	-ri-	.	.	8a/J 8A/	8e/	8A\	(16g/LL	(16ee\LL	.
.	.	.	16e/JJ)	.	16cc#\JJ)	.	.	.	.	.	.	16e\JJ)	.	.	16cc#\JJ)	.	.	.	.	.	.	16e/JJ)	16cc#X\JJ)	.
=2	=2	=2	=2	=2	=2	=2	=2	=2	=2	=2	=2	=2	=2	=2	=2	=2	=2	=2	=2	=2	=2	=2	=2	=2
4D\	.	.	8f#/L|	.	8dd\L|	.	4D\	-e	.	4A\	-e	8f#\	-e	.	8dd\	-e	.	2ryy	4dd/ 4d/	4d/	4F#\	8f#/L|	8dd\L	.
.	.	.	8b/|	.	8gg\|	.	.	.	.	.	.	(8b\L	e-	.	(8gg\L	e-	.	.	.	.	.	8b/|	8gg\	.
4r	.	.	8a/|	.	8ff#\|	.	4r	.	.	4r	.	8a\	.	.	8ff#\	.	.	.	4r	4r	4ryy	8a/|	8ff#X\	.
.	.	.	8g/J|	.	8ee\J|	.	.	.	.	.	.	8g\J)	.	.	8ee\J)	.	.	.	.	.	.	8g/J|	8ee\J	.
=3	=3	=3	=3	=3	=3	=3	=3	=3	=3	=3	=3	=3	=3	=3	=3	=3	=3	=3	=3	=3	=3	=3	=3	=3
!LO:TX:a:t=P:problem:mixed beam	!	!	!	!	!	!	!	!	!	!	!	!	!	!	!	!	!	!	!	!	!	!	!	!
*	*	*	*	*	*	*	*	*ij	*	*	*ij	*	*	*	*	*	*	*	*	*	*	*	*	*
8D\L	8 3	.	4.f#/	.	4.dd\	.	8D\L	Ky-	.	4A\	Ky-	4.f#\	-lei-	.	4.dd\	-lei-	.	2ryy	8dd/L 8d/	4.d/	4.F#\	4.f#/	4.dd\	.
8F#\	.	.	.	.	.	.	8F#\	.	.	.	.	.	.	.	.	.	.	.	16dd/L 16d/	.	.	.	.	.
.	.	.	.	.	.	.	.	.	.	.	.	.	.	.	.	.	.	.	16dd/JJ 16d/	.	.	.	.	.
8A\	4 6	.	.	.	.	.	8A\J	.	.	4A\	-ri-	.	.	.	.	.	.	.	8dd/L 8d/	.	.	.	.	.
8AA/J	.	.	(16g/LL	.	(16ee\LL	.	8AA/	-ri-	.	.	.	(16g\LL	.	.	(16ee\LL	.	.	.	8a/J 8A/	8e/	8A\	16g/LL	(16ee\LL	.
.	.	.	16e/JJ)	.	16cc#\JJ)	.	.	.	.	.	.	16e\JJ)	.	.	16cc#\JJ)	.	.	.	.	.	.	16e/JJ	16cc#X\JJ)	.
=4	=4	=4	=4	=4	=4	=4	=4	=4	=4	=4	=4	=4	=4	=4	=4	=4	=4	=4	=4	=4	=4	=4	=4	=4
4D\	.	.	8f#/L|	.	8dd\L	.	4D/	-e	.	4A\	-e	8f#\L	.	.	(8dd\L	.	.	2ryy	4dd/ 4d/	4d/	4F#\	8f#/L|	8dd\L	.
*	*	*	*	*	*	*	*	*Xij	*	*	*Xij	*	*	*	*	*	*	*	*	*	*	*	*	*
.	.	.	8g/|	.	8bb\	.	.	.	.	.	.	8g\	.	.	8bb\	.	.	.	.	.	.	8g/|	8bb\	.
4r	.	.	8f#/|	.	8aa\	.	4r	.	.	4r	.	8f#\	.	.	8aa\	.	.	.	4r	4r	4ryy	8f#/|	8aa\	.
.	.	.	8e/J|	.	8gg\J	.	.	.	.	.	.	8e\J	.	.	8gg\J)	.	.	.	.	.	.	8e/J|	8gg\J	.
*	*	*	*	*	*	*	*	*	*	*	*	*	*	*	*	*	*	*	*	*v	*v	*	*	*
=5	=5	=5	=5	=5	=5	=5	=5	=5	=5	=5	=5	=5	=5	=5	=5	=5	=5	=5	=5	=5	=5	=5	=5
!	!	!	!LO:TX:a:t=P:problem:mixed beam	!	!	!	!	!	!	!	!	!	!	!	!	!	!	!	!LO:TX:b:t=1.	!LO:TX:a:t=1.	!	!	!
4r	.	.	8d/L|	.	4ff#\|	.	4r	.	.	4r	.	8d\L	.	.	4ff#\	.	.	2ryy	2r	2r	4d/	4ff#\	.
.	.	.	8dd\J	.	.	.	.	.	.	.	.	8dd\J	.	.	.	.	.	.	.	.	.	.	.
8r	.	.	(16cc#\LL	.	(16ee\LL	.	8r	.	.	8r	.	16cc#\LL	.	.	16ee\LL	.	.	.	.	.	4r	4r	.
.	.	.	16b\	.	16dd\	.	.	.	.	.	.	16b\	.	.	16dd\	.	.	.	.	.	.	.	.
8G\|	3	.	16a\	.	16cc#\	.	8G\	e-	.	8B\	e-	16a\	.	.	16cc#\	.	.	.	.	.	.	.	.
.	.	.	16g\JJ)	.	16b\JJ)	.	.	.	.	.	.	16g\JJ	.	.	16b\JJ	.	.	.	.	.	.	.	.
=6	=6	=6	=6	=6	=6	=6	=6	=6	=6	=6	=6	=6	=6	=6	=6	=6	=6	=6	=6	=6	=6	=6	=6
*	*	*	*	*	*	*	*	*	*	*	*	*	*	*	*	*	*	*	*	*^	*	*	*
*	*	*	*	*	*	*	*	*	*	*2\right	*	*	*	*	*	*	*	*	*	*	*	*	*	*
!LO:TX:a:t=P:problem:mixed beam	!	!	!	!	!	!	!	!	!	!	!	!	!	!	!	!	!	!	!	!	!	!	!	!
8A\L	8_ 6_	.	4f#/	.	4a/	.	4A\	-lei-	.	2A\	-lei-	4f#\	.	.	(4a\	.	.	2ryy	8a/L 8A/	4a/	4f#\	4ff#X\	4aa\	.
8A\	.	.	.	.	.	.	.	.	.	.	.	.	.	.	.	.	.	.	16a/L 16A/	.	.	.	.	.
.	.	.	.	.	.	.	.	.	.	.	.	.	.	.	.	.	.	.	16a/JJ 16A/	.	.	.	.	.
8AA/	7 5	.	4e/	.	4g/	.	4AA/	.	.	.	.	4e\	.	.	4g\)	.	.	.	8a/L 8A/	4g/	4e\	4ee\	4gg\	.
8AA/J	.	.	.	.	.	.	.	.	.	.	.	.	.	.	.	.	.	.	8a/J 8A/	.	.	.	.	.
=7	=7	=7	=7	=7	=7	=7	=7	=7	=7	=7	=7	=7	=7	=7	=7	=7	=7	=7	=7	=7	=7	=7	=7	=7
4D\	.	.	4d/	.	4f#/	.	4D\	-son	.	4A\	-son	4d\	-son	.	4f#/	-son	.	2ryy	4dd/ 4d/	4f#/	4d\	4dd\	4ff#\	.
4r	.	.	4r	.	4r	.	4r	.	.	4r	.	4r	.	.	4r	.	.	.	4r	4r	4ryy	4r	4r	.
*	*	*	*	*	*	*	*	*	*	*	*	*	*	*	*	*	*	*	*	*v	*v	*	*	*
!	!	!	!	!	!	!	!	!	!	!	!	!LO:LB:g=original	!	!	!	!	!	!	!	!	!	!	!
=8	=8	=8	=8	=8	=8	=8	=8	=8	=8	=8	=8	=8	=8	=8	=8	=8	=8	=8	=8	=8	=8	=8	=8
!LO:TX:a:t=3	!	!	!	!	!	!	!LO:TX:a:t=3	!	!	!LO:TX:a:t=2	!	!LO:TX:a:t=2	!	!	!LO:TX:a:t=2	!	!	!	!	!LO:TX:a:t=3.	!	!	!
!LO:N:vis=0	!	!	!	!	!	!	!LO:N:vis=0	!	!	!LO:N:vis=0	!	!LO:N:vis=0	!	!	!LO:N:vis=0	!	!	!	!	!LO:N:vis=0	!	!	!
1r	.	.	4r	.	4r	.	1r	.	.	1r	.	1r	.	.	1r	.	.	2ryy	8a/L 8A/	1r	4r	4r	.
.	.	.	.	.	.	.	.	.	.	.	.	.	.	.	.	.	.	.	16a/L 16A/	.	.	.	.
.	.	.	.	.	.	.	.	.	.	.	.	.	.	.	.	.	.	.	16a/JJ 16A/	.	.	.	.
!	!	!	!	!	!	!LO:DY:a	!	!	!	!	!	!	!	!	!	!	!	!	!	!	!	!	!
.	.	.	8r	.	8r	p	.	.	.	.	.	.	.	.	.	.	.	.	4a/ 4A/	.	8r	8r	.
!	!	!	!	!LO:DY:a	!	!	!	!	!	!	!	!	!	!	!	!	!	!	!	!	!	!	!
.	.	.	8f#/|	p	8dd\	.	.	.	.	.	.	.	.	.	.	.	.	.	.	.	8dd\	8ff#\	.
!	!	!	!	!	!LO:LB:g=original	!	!	!	!	!	!	!	!	!	!	!	!	!	!	!	!	!	!
=9	=9	=9	=9	=9	=9	=9	=9	=9	=9	=9	=9	=9	=9	=9	=9	=9	=9	=9	=9	=9	=9	=9	=9
!	!	!	!LO:N:vis=8	!	!	!	!	!	!	!	!	!	!	!	!	!	!	!	!LO:TX:a:t=1.	!	!	!LO:N:vis=16.	!
.	.	.	8.e/L	.	8.cc#\L	.	.	.	.	.	.	.	.	.	.	.	.	2ryy	2r	.	(8.cc#X\L	8.ee\L|	.
.	.	.	32f#/LL	.	32dd\LL	.	.	.	.	.	.	.	.	.	.	.	.	.	.	.	32dd\LL	(32ff#\LL	.
.	.	.	32g/JJJ	.	32ee\JJJ	.	.	.	.	.	.	.	.	.	.	.	.	.	.	.	32ee\JJJ)	32gg\JJJ)	.
.	.	.	4f#/	.	4dd\	.	.	.	.	.	.	.	.	.	.	.	.	.	.	.	4dd\	8ff#\|	.
.	.	.	.	.	.	.	.	.	.	.	.	.	.	.	.	.	.	.	.	.	.	8r	.
!	!	!	!LO:LB:g=original	!	!	!	!	!	!	!LO:LB:g=original	!	!	!	!	!	!	!	!	!LO:LB:g=original	!	!LO:LB:g=original	!LO:LB:g=original	!
=10	=10	=10	=10	=10	=10	=10	=10	=10	=10	=10	=10	=10	=10	=10	=10	=10	=10	=10	=10	=10	=10	=10	=10
2r	.	.	4r	.	4r	.	2r	.	.	4r	.	4r	.	.	4r	.	.	2ryy	8a/L 8A/	2r	4r	4r	.
.	.	.	.	.	.	.	.	.	.	.	.	.	.	.	.	.	.	.	16a/L 16A/	.	.	.	.
.	.	.	.	.	.	.	.	.	.	.	.	.	.	.	.	.	.	.	16a/JJ 16A/	.	.	.	.
.	.	.	8r	.	8r	.	.	.	.	8r	.	8r	.	.	8r	.	.	.	4a/ 4A/	.	8r	8r	.
.	.	.	8d/	.	8ff#\	.	.	.	.	8d\	e-	8a\	e-	.	8ff#\	e-	.	.	.	.	8dd\	8ff#\|	.
!	!	!	!	!	!	!	!LO:LB:g=original	!	!	!	!	!	!	!	!LO:LB:g=original	!	!	!	!	!	!	!	!
=11	=11	=11	=11	=11	=11	=11	=11	=11	=11	=11	=11	=11	=11	=11	=11	=11	=11	=11	=11	=11	=11	=11	=11
*	*	*	*	*	*	*	*	*	*	*	*	*	*	*	*	*	*	*	*^	*^	*	*	*
4r	.	.	8.c#/L	.	(8.ee\L	.	4r	.	.	(8.c#\L	-lei-	4a\	-lei-	.	8.ee\L	-lei-	.	2ryy	4r	4ryy	4r	4ryy	8.cc#X\L	(8.ee\L	.
.	.	.	32d/LL	.	32ff#\LL	.	.	.	.	32d\LL)	.	.	.	.	32ff#\LL	.	.	.	.	.	.	.	32dd\LL	32ff#\LL	.
.	.	.	32e/JJJ	.	32gg\JJJ)	.	.	.	.	32e\JJJ	.	.	.	.	32gg\JJJ	.	.	.	.	.	.	.	32ee\JJJ	32gg\JJJ)	.
8r	.	.	8d/L	.	8ff#\L	.	8r	.	.	8d\|	-son	8a\	-son	.	8ff#\	-son	.	.	8r	8ryy	8r	8ryy	8dd\L|	8ff#\L|	.
!	!	!	!	!	!	!	!	!	!	!	!	!	!	!	!	!	!	!	!LO:SIC:n:=1 s=8eet=lub cc:v	!	!	!	!	!	!
*	*	*	*	*	*	*	*	*ij	*	*	*ij	*	*ij	*	*	*ij	*	*	*	*	*	*	*	*	*
8D\	.	.	8f#/J	.	8dd\J	.	8D\	e-	.	8A\	e-	8f#\	e-	.	8dd\	e-	.	.	8ee/	8a\	8f#/	8d\	8dd\J|	8ff#\J|	.
=12	=12	=12	=12	=12	=12	=12	=12	=12	=12	=12	=12	=12	=12	=12	=12	=12	=12	=12	=12	=12	=12	=12	=12	=12	=12
!LO:TX:a:t=P:problem:mixed beam	!	!	!	!	!	!	!	!	!	!	!	!	!	!	!	!	!	!	!	!	!	!	!	!	!
8A\L	7 6	.	8f#/L	.	8dd\L|	.	8A\	-lei-	.	8A\	-lei-	8f#\	-lei-	.	8dd\	-lei-	.	2ryy	8ff#/L	8dd\L	8f#/L	8d\L	(8dd\L	8ff#\L	.
8AA/J	.	.	8e/J	.	8cc#\J|	.	8AA/	-son	.	8A\	-son	8e\	-son	.	8cc#\	-son	.	.	8ee/J	8a\J	8e/J	8A\J	8cc#X\J)	8ee\J	.
*	*	*	*	*	*	*	*	*	*	*	*	*	*	*	*	*Xij	*	*	*	*	*	*	*	*	*
4r	.	.	4r	.	4r	.	4r	.	.	4r	.	4r	.	.	4r	.	.	.	4r	4ryy	4r	4ryy	4r	4r	.
*	*	*	*	*	*	*	*	*	*	*	*	*	*	*	*	*	*	*	*v	*v	*	*	*	*	*
*	*	*	*	*	*	*	*	*	*	*	*	*	*	*	*	*	*	*	*	*v	*v	*	*	*
!	!	!	!	!	!	!	!	!	!	!	!	!	!	!	!	!	!	!	!	!LO:LB:g=original	!	!	!
=13	=13	=13	=13	=13	=13	=13	=13	=13	=13	=13	=13	=13	=13	=13	=13	=13	=13	=13	=13	=13	=13	=13	=13
!LO:TX:a:t=3	!	!	!	!	!	!	!LO:TX:b:t=3.	!	!	!LO:TX:a:t=2	!	!LO:TX:a:t=2	!	!	!	!	!	!	!	!LO:TX:a:t=3.	!	!	!
!LO:N:vis=0	!	!	!	!	!	!	!LO:N:vis=0	!	!	!LO:N:vis=0	!	!LO:N:vis=0	!	!	!LO:N:vis=0	!	!	!	!	!LO:N:vis=0	!	!	!
1r	.	.	4r	.	4r	.	1r	.	.	1r	.	1r	.	.	1r	.	.	2ryy	8a/L 8A/	1r	4r	4r	.
.	.	.	.	.	.	.	.	.	.	.	.	.	.	.	.	.	.	.	16a/L 16A/	.	.	.	.
.	.	.	.	.	.	.	.	.	.	.	.	.	.	.	.	.	.	.	16a/JJ 16A/	.	.	.	.
!	!	!	!	!	!	!LO:DY:a	!	!	!	!	!	!	!	!	!	!	!	!	!	!	!	!	!
.	.	.	8r	.	8r	p	.	.	.	.	.	.	.	.	.	.	.	.	4a/ 4A/	.	8r	8r	.
.	.	.	8f#/	.	8dd\	.	.	.	.	.	.	.	.	.	.	.	.	.	.	.	8dd\	8ff#\	.
=14	=14	=14	=14	=14	=14	=14	=14	=14	=14	=14	=14	=14	=14	=14	=14	=14	=14	=14	=14	=14	=14	=14	=14
!	!	!	!	!	!	!	!	!	!	!	!	!	!	!	!	!	!	!	!LO:TX:a:t=1.	!	!	!	!
.	.	.	8.e/L	.	8.cc#\L	.	.	.	.	.	.	.	.	.	.	.	.	2ryy	2r	.	8.cc#X\L	(8.ee\L	.
.	.	.	32f#/LL	.	32dd\LL	.	.	.	.	.	.	.	.	.	.	.	.	.	.	.	(32dd\LL	32ff#\LL	.
.	.	.	32g/JJJ	.	32ee\JJJ	.	.	.	.	.	.	.	.	.	.	.	.	.	.	.	32ee\JJJ)	32gg\JJJ)	.
.	.	.	4f#/	.	4dd\	.	.	.	.	.	.	.	.	.	.	.	.	.	.	.	4dd\	8ff#\	.
.	.	.	.	.	.	.	.	.	.	.	.	.	.	.	.	.	.	.	.	.	.	8r	.
=15	=15	=15	=15	=15	=15	=15	=15	=15	=15	=15	=15	=15	=15	=15	=15	=15	=15	=15	=15	=15	=15	=15	=15
2r	.	.	4r	.	4r	.	2r	.	.	4r	.	4r	.	.	4r	.	.	2ryy	8a/L 8A/	2r	4r	4r	.
.	.	.	.	.	.	.	.	.	.	.	.	.	.	.	.	.	.	.	16a/L 16A/	.	.	.	.
.	.	.	.	.	.	.	.	.	.	.	.	.	.	.	.	.	.	.	16a/JJ 16A/	.	.	.	.
.	.	.	8r	.	8r	.	.	.	.	8r	.	8r	.	.	8r	.	.	.	4a/ 4A/	.	8r	8r	.
.	.	.	8d/	.	8ff#\	.	.	.	.	8d\	e-	8a\	e-	.	8ff#\	e-	.	.	.	.	8dd\	8ff#\	.
!LO:LB:g=original	!	!	!	!	!	!	!	!	!	!	!	!	!	!	!	!	!	!	!	!	!	!	!
=16	=16	=16	=16	=16	=16	=16	=16	=16	=16	=16	=16	=16	=16	=16	=16	=16	=16	=16	=16	=16	=16	=16	=16
*	*	*	*	*	*	*	*	*	*	*	*	*	*	*	*	*	*	*	*	*^	*	*	*
4r	.	.	8.c#/L	.	(8.ee\L	.	4r	.	.	8.c#\L	-lei-	4a\	-lei-	.	8.ee\L	-leis-	.	2ryy	4r	4r	4ryy	(8.cc#X\L	(8.ee\L	.
.	.	.	32d/LL	.	32ff#\LL	.	.	.	.	32d\LL	.	.	.	.	32ff#\LL	.	.	.	.	.	.	32dd\LL	32ff#\LL	.
.	.	.	32e/JJJ	.	32gg\JJJ)	.	.	.	.	32e\JJJ	.	.	.	.	32gg\JJJ	.	.	.	.	.	.	32ee\JJJ)	32gg\JJJ)	.
!	!	!	!LO:TX:a:t=P:problem:mixed beam	!	!	!	!	!	!	!	!	!	!	!	!	!	!	!	!	!	!	!	!	!
8r	.	.	8d/L	.	8ff#\L	.	8r	.	.	8d\	-son	8a\	-son	.	8ff#\	-on	.	.	8r	8r	8ryy	8dd\L|	8ff#\L|	.
*	*	*	*	*	*	*	*	*	*	*	*	*	*	*	*	*ij	*	*	*	*	*	*	*	*
8D\	.	.	8ff#\J	.	8ddd\J	.	8D\	e-	.	8A\	e-	8f#\	e-	.	8dd\	e-	.	.	8a/ 8A/	8f#/	8d\	8dd\J|	8ff#\J|	.
!	!	!	!	!	!LO:LB:g=original	!	!	!	!	!	!	!	!	!	!	!	!	!	!	!	!	!	!	!
=17	=17	=17	=17	=17	=17	=17	=17	=17	=17	=17	=17	=17	=17	=17	=17	=17	=17	=17	=17	=17	=17	=17	=17	=17
!LO:TX:a:t=P:problem:mixed beam	!	!	!	!	!	!	!	!	!	!	!	!	!	!	!	!	!	!	!	!	!	!	!	!
8A\L	6 4	.	8ff#\L	.	8ddd\L	.	8A\	-lei-	.	8A\	-lei-	8f#\	-lei-	.	8dd\	-leis-	.	2ryy	8dd/L 8d/	8f#/L	8d\L	8dd\L|	8ff#\L|	.
8AA/J	5 3	.	8ee\J	.	8ccc#\J	.	8AA/	-son	.	8A\	-son	8e\	-son	.	8cc#\	-on	.	.	8a/J 8A/	8e/J	8A\J	8cc#X\J|	8ee\J|	.
*	*	*	*	*	*	*	*	*Xij	*	*	*Xij	*	*Xij	*	*	*Xij	*	*	*	*	*	*	*	*
8r	.	.	16a\LL	.	(16a\LL	.	8r	.	.	8r	.	8r	.	.	8r	.	.	.	8r	8r	8ryy	8r	8r	.
.	.	.	16cc#\	.	16cc#\	.	.	.	.	.	.	.	.	.	.	.	.	.	.	.	.	.	.	.
8c#\	6	.	16ee\	.	16ee\	.	8c#\	e-	.	8c#\	e-	8a\	e-	.	8ee\	e-	.	.	8a/ 8A/	8e/	8A\	8a/	8ee\	.
.	.	.	16gg\JJ	.	16gg\JJ)	.	.	.	.	.	.	.	.	.	.	.	.	.	.	.	.	.	.	.
!	!	!	!	!	!	!	!	!	!	!LO:LB:g=original	!	!LO:LB:g=original	!	!	!	!	!	!	!	!	!	!	!	!
=18	=18	=18	=18	=18	=18	=18	=18	=18	=18	=18	=18	=18	=18	=18	=18	=18	=18	=18	=18	=18	=18	=18	=18	=18
*2\right	*	*	*	*	*2\right	*	*2\right	*	*	*	*	*2\right	*	*	*2\right	*	*	*	*	*	*	*	*2\right	*
*tremolo	*	*	*	*	*tremolo	*	*	*	*	*	*	*	*	*	*	*	*	*	*	*	*	*	*	*
8d\L	.	.	16ff#\LL	.	16ff#\LL	.	2d\	-lei-	.	[<2d\	-lei-	(<2a\	-lei-	.	[<2ff#\	-lei-	.	2ryy	4dd/ 4d/	4f#/	4d\	2a/	2ff#\	.
.	.	.	16gg\	.	16ff#\	.	.	.	.	.	.	.	.	.	.	.	.	.	.	.	.	.	.	.
8d\	.	.	16aa\	.	16ff#\	.	.	.	.	.	.	.	.	.	.	.	.	.	.	.	.	.	.	.
.	.	.	16gg\JJ	.	16ff#\	.	.	.	.	.	.	.	.	.	.	.	.	.	.	.	.	.	.	.
8d\	.	.	16ff#\LL	.	16ff#\	.	.	.	.	.	.	.	.	.	.	.	.	.	4r	4r	4ryy	.	.	.
.	.	.	16ee\	.	16ff#\	.	.	.	.	.	.	.	.	.	.	.	.	.	.	.	.	.	.	.
8d\J	.	.	16dd\	.	16ff#\	.	.	.	.	.	.	.	.	.	.	.	.	.	.	.	.	.	.	.
.	.	.	16cc#\JJ	.	16ff#\JJ	.	.	.	.	.	.	.	.	.	.	.	.	.	.	.	.	.	.	.
*	*	*	*	*	*	*	*	*	*	*	*	*	*	*	*	*	*	*	*	*v	*v	*	*	*
=19	=19	=19	=19	=19	=19	=19	=19	=19	=19	=19	=19	=19	=19	=19	=19	=19	=19	=19	=19	=19	=19	=19	=19
*	*	*	*2\right	*	*	*	*	*	*	*	*	*	*	*	*	*	*	*	*	*	*2\right	*	*
*	*	*	*tremolo	*	*	*	*	*	*	*	*	*	*	*	*	*	*	*	*	*	*	*	*
!	!	!	!	!	!	!	!	!	!	!	!	!	!	!	!	!	!	!	!LO:TX:a:t=5.	!LO:TX:a:t=5.	!	!	!
!	!	!	!	!	!	!	!	!	!	!	!	!	!	!	!	!	!	!	!LO:N:vis=00	!LO:N:vis=00	!	!	!
8G#X\L	7	.	16b\LL	.	16ff#\LL	.	2G#X\	.	.	2d\]	.	2b\)	.	.	2ff#\]	.	.	2ryy	0r	0r	2b\	2ff#\	.
.	.	.	16b\	.	16bb\	.	.	.	.	.	.	.	.	.	.	.	.	.	.	.	.	.	.
8G#X\	.	.	16b\	.	16ddd\	.	.	.	.	.	.	.	.	.	.	.	.	.	.	.	.	.	.
.	.	.	16b\	.	16ccc#\JJ	.	.	.	.	.	.	.	.	.	.	.	.	.	.	.	.	.	.
8G#X\	.	.	16b\	.	16bb\LL	.	.	.	.	.	.	.	.	.	.	.	.	.	.	.	.	.	.
.	.	.	16b\	.	16aa\	.	.	.	.	.	.	.	.	.	.	.	.	.	.	.	.	.	.
8G#X\J	.	.	16b\	.	16gg#X\	.	.	.	.	.	.	.	.	.	.	.	.	.	.	.	.	.	.
.	.	.	16b\JJ	.	16ff#\JJ	.	.	.	.	.	.	.	.	.	.	.	.	.	.	.	.	.	.
=20	=20	=20	=20	=20	=20	=20	=20	=20	=20	=20	=20	=20	=20	=20	=20	=20	=20	=20	=20	=20	=20	=20	=20
8c#\L	7	.	16ee\LL	.	16ee\LL	.	2c#\	.	.	2B\	.	(<2b\	.	.	[<2ee\	.	.	2ryy	.	.	2b\	2ee\	.
.	.	.	16ff#\	.	16ee\	.	.	.	.	.	.	.	.	.	.	.	.	.	.	.	.	.	.
8c#\	.	.	16gg\	.	16ee\	.	.	.	.	.	.	.	.	.	.	.	.	.	.	.	.	.	.
.	.	.	16ff#\JJ	.	16ee\	.	.	.	.	.	.	.	.	.	.	.	.	.	.	.	.	.	.
!	!	!	!LO:LB:g=original	!	!	!	!	!	!	!	!	!	!	!	!	!	!	!	!	!	!	!	!
8c#\	.	.	16ee\LL	.	16ee\	.	.	.	.	.	.	.	.	.	.	.	.	.	.	.	.	.	.
.	.	.	16dd\	.	16ee\	.	.	.	.	.	.	.	.	.	.	.	.	.	.	.	.	.	.
8c#\J	.	.	16cc#\	.	16ee\	.	.	.	.	.	.	.	.	.	.	.	.	.	.	.	.	.	.
.	.	.	16b\JJ	.	16ee\JJ	.	.	.	.	.	.	.	.	.	.	.	.	.	.	.	.	.	.
!	!	!	!	!	!	!	!	!	!	!	!	!	!	!	!	!	!	!	!	!	!LO:LB:g=original	!	!
=21	=21	=21	=21	=21	=21	=21	=21	=21	=21	=21	=21	=21	=21	=21	=21	=21	=21	=21	=21	=21	=21	=21	=21
8F#\L	7	.	16a/LL	.	(16ee\LL	.	2F#\	.	.	2c#\	.	2a\)	.	.	2ee\]	.	.	2ryy	.	.	2a/	2ee\	.
.	.	.	16a/	.	16aa\	.	.	.	.	.	.	.	.	.	.	.	.	.	.	.	.	.	.
8F#\	.	.	16a/	.	16ccc#\)	.	.	.	.	.	.	.	.	.	.	.	.	.	.	.	.	.	.
.	.	.	16a/	.	16bb\JJ	.	.	.	.	.	.	.	.	.	.	.	.	.	.	.	.	.	.
8F#\	.	.	16a/	.	(16aa\LL	.	.	.	.	.	.	.	.	.	.	.	.	.	.	.	.	.	.
.	.	.	16a/	.	16gg#X\	.	.	.	.	.	.	.	.	.	.	.	.	.	.	.	.	.	.
8F#\J	.	.	16a/	.	16ff#\)	.	.	.	.	.	.	.	.	.	.	.	.	.	.	.	.	.	.
.	.	.	16a/JJ	.	16ee\JJ	.	.	.	.	.	.	.	.	.	.	.	.	.	.	.	.	.	.
=22	=22	=22	=22	=22	=22	=22	=22	=22	=22	=22	=22	=22	=22	=22	=22	=22	=22	=22	=22	=22	=22	=22	=22
8B\L	7	.	16dd\LL	.	16dd\LL	.	2B\	.	.	2A\	.	2a\	.	.	[<2dd\	.	.	2ryy	.	.	2a/	2dd\	.
.	.	.	16ee\	.	16dd\	.	.	.	.	.	.	.	.	.	.	.	.	.	.	.	.	.	.
8B\	.	.	16ff#\	.	16dd\	.	.	.	.	.	.	.	.	.	.	.	.	.	.	.	.	.	.
.	.	.	16ee\JJ	.	16dd\	.	.	.	.	.	.	.	.	.	.	.	.	.	.	.	.	.	.
8B\	.	.	16dd\LL	.	16dd\	.	.	.	.	.	.	.	.	.	.	.	.	.	.	.	.	.	.
.	.	.	16cc#\	.	16dd\	.	.	.	.	.	.	.	.	.	.	.	.	.	.	.	.	.	.
8B\J	.	.	16b\	.	16dd\	.	.	.	.	.	.	.	.	.	.	.	.	.	.	.	.	.	.
.	.	.	16a\JJ	.	16dd\JJ	.	.	.	.	.	.	.	.	.	.	.	.	.	.	.	.	.	.
*Xtremolo	*	*	*	*	*Xtremolo	*	*	*	*	*	*	*	*	*	*	*	*	*	*	*	*	*	*
!	!	!	!	!	!	!	!	!	!	!	!	!	!	!	!LO:LB:g=original	!	!	!	!	!	!	!	!
=23	=23	=23	=23	=23	=23	=23	=23	=23	=23	=23	=23	=23	=23	=23	=23	=23	=23	=23	=23	=23	=23	=23	=23
!	!	!	!	!	!	!	!	!	!	!	!	!	!	!	!LO:SIC:s:o:=:v:brak zakończenia ligatury	!	!	!	!	!	!	!	!
8E\L	7_ #_	.	16g#X/LL	.	16dd\LL	.	2E\	.	.	2B\	.	2g#X\	.	.	2dd\]	.	.	2ryy	2r	2r	2g#X/	2dd\	.
.	.	.	16g#X/	.	16gg#X\	.	.	.	.	.	.	.	.	.	.	.	.	.	.	.	.	.	.
8E\	.	.	16g#X/	.	16bb\	.	.	.	.	.	.	.	.	.	.	.	.	.	.	.	.	.	.
.	.	.	16g#X/	.	16aa\JJ	.	.	.	.	.	.	.	.	.	.	.	.	.	.	.	.	.	.
8F#\	.	.	16g#X/	.	16gg#\LL	.	.	.	.	.	.	.	.	.	.	.	.	.	.	.	.	.	.
.	.	.	16g#X/	.	16ff#\	.	.	.	.	.	.	.	.	.	.	.	.	.	.	.	.	.	.
8G#X\J	x	.	16g#X/	.	16ee\	.	.	.	.	.	.	.	.	.	.	.	.	.	.	.	.	.	.
.	.	.	16g#X/JJ	.	16dd\JJ	.	.	.	.	.	.	.	.	.	.	.	.	.	.	.	.	.	.
!	!	!	!	!	!	!	!	!	!	!	!	!	!	!	!	!	!	!	!LO:LB:g=original	!	!	!LO:LB:g=original	!
=24	=24	=24	=24	=24	=24	=24	=24	=24	=24	=24	=24	=24	=24	=24	=24	=24	=24	=24	=24	=24	=24	=24	=24
!	!	!	!LO:TX:a:t=P:problem:mixed beam	!	!	!	!	!	!	!	!	!	!	!	!	!	!	!	!	!	!	!	!
2A/ 2AA/	.	.	8a/L	.	16cc#\LL	.	[<2A\	.	.	(8A\L	.	2a\	.	.	8cc#\L	.	.	2ryy	8a/L 8A`/	4A/ 4AA/	8a\L	8cc#X\L	.
.	.	.	.	.	16a\	.	.	.	.	.	.	.	.	.	.	.	.	.	.	.	.	.	.
.	.	.	8ff#\	.	16aa\	.	.	.	.	8f#\	.	.	.	.	8aa\	.	.	.	8a/ 8A`/	.	8ff#X\|	8aa\	.
.	.	.	.	.	16a\JJ	.	.	.	.	.	.	.	.	.	.	.	.	.	.	.	.	.	.
!	!	!	!	!	!	!	!	!	!	!	!	!	!	!	!LO:SIC:s:=:v:8gg#	!	!	!	!	!	!	!	!
.	.	.	8ee\	.	16gg#X\LL	.	.	.	.	8e\	.	.	.	.	8gg\	.	.	.	8a/ 8A`/	4r	8ee\|	8gg#X\	.
.	.	.	.	.	16a\	.	.	.	.	.	.	.	.	.	.	.	.	.	.	.	.	.	.
.	.	.	8dd\J	.	16ff#\	.	.	.	.	8d\J)	.	.	.	.	8ff#\J	.	.	.	8a/J 8A`/	.	8dd\J|	8ff#X\J	.
.	.	.	.	.	16a\JJ	.	.	.	.	.	.	.	.	.	.	.	.	.	.	.	.	.	.
!	!	!	!	!	!LO:LB:g=original	!	!LO:LB:g=original	!	!	!	!	!	!	!	!	!	!	!	!	!	!	!	!
=25	=25	=25	=25	=25	=25	=25	=25	=25	=25	=25	=25	=25	=25	=25	=25	=25	=25	=25	=25	=25	=25	=25	=25
*	*	*	*	*	*	*	*	*	*	*	*	*	*	*	*	*	*	*	*tremolo	*	*	*	*
!	!	!	!	!	!	!	!LO:SIC:s:o:=:v:brak zakończenia ligatury	!	!	!	!	!	!	!	!	!	!	!	!LO:SIC:o:s:=:v:4 kreski artykulacyjne	!	!	!	!
2A/ 2AA/	.	.	8cc#\L	.	16ee\LL	.	2A\_<	.	.	(8c#\L	.	2a\	.	.	8ee\L	.	.	2ryy	8a/ 8A/L	4A/ 4AA/	8cc#X'\L	8ee\L	.
.	.	.	.	.	16a\	.	.	.	.	.	.	.	.	.	.	.	.	.	.	.	.	.	.
.	.	.	8dd\	.	16ff#\	.	.	.	.	8d\	.	.	.	.	8ff#\	.	.	.	8a/ 8A/	.	8dd'\	8ff#\	.
.	.	.	.	.	16a\JJ	.	.	.	.	.	.	.	.	.	.	.	.	.	.	.	.	.	.
.	.	.	8cc#\	.	16ee\LL	.	.	.	.	8c#\	.	.	.	.	8ee\	.	.	.	8a/ 8A/	4r	8cc#'\	8ee\	.
.	.	.	.	.	16a\	.	.	.	.	.	.	.	.	.	.	.	.	.	.	.	.	.	.
.	.	.	8b\J	.	16dd\	.	.	.	.	8B\J)	.	.	.	.	8dd\J	.	.	.	8a/ 8A/J	.	8b'\J	8dd\J	.
.	.	.	.	.	16a\JJ	.	.	.	.	.	.	.	.	.	.	.	.	.	.	.	.	.	.
=26	=26	=26	=26	=26	=26	=26	=26	=26	=26	=26	=26	=26	=26	=26	=26	=26	=26	=26	=26	=26	=26	=26	=26
!	!	!	!	!	!	!	!	!	!	!	!	!	!	!	!	!	!	!	!LO:SIC:o:s:=:v:4 kreski artykulacyjne	!	!	!	!
2A/ 2AA/	.	.	8a/L	.	8cc#\L	.	2A\]	.	.	[<2A\	.	8a\	-son	.	8cc#\L	.	.	2ryy	8a/ 8A/L	4A/ 4AA/	8a'/L	8cc#X\L	.
.	.	.	8a/	.	8ff#\	.	.	.	.	.	.	(8a\L	e-	.	8ff#\	.	.	.	8a/ 8A/	.	8a'/	8ff#\	.
.	.	.	8g#X/	.	8ee\	.	.	.	.	.	.	8g#X\	.	.	8ee\	.	.	.	8a/ 8A/	4r	8g#X'/	8ee\	.
.	.	.	8f#/J	.	8dd\J	.	.	.	.	.	.	8f#\J)	.	.	8dd\J	.	.	.	8a/ 8A/J	.	8f#X'/J	8dd\J	.
=27	=27	=27	=27	=27	=27	=27	=27	=27	=27	=27	=27	=27	=27	=27	=27	=27	=27	=27	=27	=27	=27	=27	=27
!	!	!	!	!	!	!	!	!	!	!	!	!	!	!	!	!	!	!	!LO:SIC:o:s:=:v:4 kreski artykulacyjne	!	!	!	!
2A/ 2AA/	.	.	8e/L	.	8cc#\L	.	2A\	.	.	2A\_<	.	8e\L	-lei-	.	8cc#\L	.	.	2ryy	8a/ 8A/L	4A/ 4AA/	8e/L	8cc#\L	.
.	.	.	8f#/	.	8dd\	.	.	.	.	.	.	8f#\	.	.	8dd\	.	.	.	8a/ 8A/	.	8f#/	8dd\	.
.	.	.	8e/	.	8cc#\	.	.	.	.	.	.	8e\	.	.	8cc#\	.	.	.	8a/ 8A/	4r	8e/	8cc#\	.
.	.	.	8d/J	.	8b\J	.	.	.	.	.	.	8d\J	.	.	8b\J	.	.	.	8a/ 8A/J	.	8d/J	8b\J	.
=28	=28	=28	=28	=28	=28	=28	=28	=28	=28	=28	=28	=28	=28	=28	=28	=28	=28	=28	=28	=28	=28	=28	=28
*	*	*	*	*	*	*	*	*	*	*	*	*	*	*	*	*	*	*	*	*^	*	*	*
!	!	!	!	!	!	!	!	!	!	!	!	!	!	!	!	!	!	!	!LO:SIC:o:s:=:v:4 kreski artykulacyjne	!	!	!	!	!
8AA/	8_ 3_	.	8c#/L	.	(8a/L	.	2A\	.	.	2A\]	.	8c#\L|	.	.	8a\L	.	.	2ryy	8a/ 8A/L	8e/	8A\	4a/	4cc#X\|	.
8r	.	.	16d/L	.	16b/L	.	.	.	.	.	.	(16d\L	.	.	16b\L	.	.	.	8a/ 8A/	8r	8ryy	.	.	.
.	.	.	16e/JJ	.	16cc#/JJ)	.	.	.	.	.	.	16e\JJ)	.	.	16cc#\JJ	.	.	.	.	.	.	.	.	.
8AA/	.	.	8c#/L	.	(8a/L	.	.	.	.	.	.	8c#\L|	.	.	8a\L	.	.	.	8a/ 8A/	8e/	8A\	4a/	4cc#\|	.
8r	.	.	16d/L	.	16b/L	.	.	.	.	.	.	(16d\L	.	.	16b\L	.	.	.	8a/ 8A/J	8r	8ryy	.	.	.
.	.	.	16e/JJ	.	16cc#/JJ)	.	.	.	.	.	.	16e\JJ)	.	.	16cc#\JJ	.	.	.	.	.	.	.	.	.
*	*	*	*	*	*	*	*	*	*	*	*	*	*	*	*	*	*	*	*Xtremolo	*	*	*	*	*
=29	=29	=29	=29	=29	=29	=29	=29	=29	=29	=29	=29	=29	=29	=29	=29	=29	=29	=29	=29	=29	=29	=29	=29	=29
4AA/	.	.	4c#/	.	4a/	.	4A\	-son	.	4A\	-son	4c#\	-son	.	4a\	-son	.	2ryy	4a/ 4A/	4e/	4A\	4a/	4cc#\|	.
16A'\LL	x	.	4r	.	4r	.	4r	.	.	4r	.	4r	.	.	4r	.	.	.	4r	4r	4ryy	4r	4r	.
16G'\	.	.	.	.	.	.	.	.	.	.	.	.	.	.	.	.	.	.	.	.	.	.	.	.
16F#'\	.	.	.	.	.	.	.	.	.	.	.	.	.	.	.	.	.	.	.	.	.	.	.	.
16E'\JJ	.	.	.	.	.	.	.	.	.	.	.	.	.	.	.	.	.	.	.	.	.	.	.	.
*	*	*	*	*	*	*	*	*	*	*	*	*	*	*	*	*	*	*	*	*v	*v	*	*	*
!	!	!	!	!	!	!	!	!	!	!LO:LB:g=original	!	!LO:LB:g=original	!	!	!	!	!	!	!	!	!	!	!
=30	=30	=30	=30	=30	=30	=30	=30	=30	=30	=30	=30	=30	=30	=30	=30	=30	=30	=30	=30	=30	=30	=30	=30
!	!	!	!	!	!LO:TX:b:t=3.	!	!LO:TX:a:t=2	!	!	!LO:TX:a:t=2	!	!	!	!	!	!	!	!	!	!LO:TX:b:t=22.	!LO:TX:a:t=12.	!LO:TX:a:t=12.	!
!	!	!	!LO:N:vis=0	!	!LO:N:vis=0	!	!LO:N:vis=0	!	!	!LO:N:vis=0	!	!	!	!	!	!	!	!	!	!	!	!	!
4D\	.	.	1r	.	1r	.	1r	.	.	1r	.	4r	.	.	4r	.	.	2ryy	8d/L	2r	2r	2r	.
.	.	.	.	.	.	.	.	.	.	.	.	.	.	.	.	.	.	.	16d/L	.	.	.	.
.	.	.	.	.	.	.	.	.	.	.	.	.	.	.	.	.	.	.	16d/JJ	.	.	.	.
4r	.	.	.	.	.	.	.	.	.	.	.	8r	.	.	8r	.	.	.	4d/	.	.	.	.
.	.	.	.	.	.	.	.	.	.	.	.	8a\	e-	.	8ccn\	e-	.	.	.	.	.	.	.
=31	=31	=31	=31	=31	=31	=31	=31	=31	=31	=31	=31	=31	=31	=31	=31	=31	=31	=31	=31	=31	=31	=31	=31
!LO:TX:a:t=2	!	!	!	!	!	!	!	!	!	!	!	!	!	!	!LO:SIC:s:=:v:8ccn	!	!	!	!LO:TX:a:t=1.	!	!	!	!
!LO:N:vis=0	!	!	!	!	!	!	!	!	!	!	!	!	!	!	!	!	!	!	!	!	!	!	!
1r	.	.	.	.	.	.	.	.	.	.	.	8a\L	-lei-	.	8cc#\L	-lei-	.	2ryy	2r	2r	2r	2r	.
.	.	.	.	.	.	.	.	.	.	.	.	8gn\J	.	.	8b\J	.	.	.	.	.	.	.	.
.	.	.	.	.	.	.	.	.	.	.	.	4g\	-son	.	4b\	-son	.	.	.	.	.	.	.
=32	=32	=32	=32	=32	=32	=32	=32	=32	=32	=32	=32	=32	=32	=32	=32	=32	=32	=32	=32	=32	=32	=32	=32
.	.	.	2r	.	2r	.	4r	.	.	4r	.	4r	.	.	4r	.	.	2ryy	8d/L	2r	2r	2r	.
.	.	.	.	.	.	.	.	.	.	.	.	.	.	.	.	.	.	.	16d/L	.	.	.	.
.	.	.	.	.	.	.	.	.	.	.	.	.	.	.	.	.	.	.	16d/JJ	.	.	.	.
.	.	.	.	.	.	.	8r	.	.	8r	.	8r	.	.	8r	.	.	.	4d/	.	.	.	.
*	*	*	*	*	*	*	*	*	*	*	*	*	*ij	*	*	*ij	*	*	*	*	*	*	*
.	.	.	.	.	.	.	8D\	e-	.	8d\	el-	8a\	e-	.	8ff#\	e-	.	.	.	.	.	.	.
=33	=33	=33	=33	=33	=33	=33	=33	=33	=33	=33	=33	=33	=33	=33	=33	=33	=33	=33	=33	=33	=33	=33	=33
!	!	!	!	!	!	!	!	!	!	!	!	!	!	!	!	!	!	!	!LO:TX:a:t=1.	!	!	!	!
4r	.	.	4r	.	4r	.	4G\	-lei-	.	4d\	-ei-	8a\L	-lei-	.	8ff#\L	-lei-	.	2ryy	2r	2r	2r	2r	.
.	.	.	.	.	.	.	.	.	.	.	.	8b\J	.	.	8gg\J	.	.	.	.	.	.	.	.
!	!	!	!	!	!	!	!	!	!	!	!	!	!	!	!LO:LB:g=original	!	!	!	!	!	!	!	!
8r	.	.	8r	.	8r	.	8G\	-son	.	8d\	-son	8b\	-son	.	8gg\	-son	.	.	.	.	.	.	.
*	*	*	*	*	*	*	*	*ij	*	*	*ij	*	*Xij	*	*	*Xij	*	*	*	*	*	*	*
8Cn/	3 1	.	8ccn\	.	8ee\	p	8cn\	e-	.	8e\	e-	8ccn\	e-	.	8ee\	e-	.	.	.	.	.	.	.
!LO:LB:g=original	!	!	!	!	!	!	!	!	!	!	!	!	!	!	!	!	!	!	!	!	!	!	!
=34	=34	=34	=34	=34	=34	=34	=34	=34	=34	=34	=34	=34	=34	=34	=34	=34	=34	=34	=34	=34	=34	=34	=34
4D\	8 6	.	8b/L	.	(8dd\L	.	(4d\	-lei-	.	2d\	-lei-	(8b\L	-lei-	.	8dd\L	-lei-	.	2ryy	8d/L	2r	2r	2r	.
.	-7 5	.	8a/	.	8ccn\	.	.	.	.	.	.	8a\	.	.	8ccn\	.	.	.	16d/L	.	.	.	.
.	6 4	.	.	.	.	.	.	.	.	.	.	.	.	.	.	.	.	.	16d/JJ	.	.	.	.
!LO:SIC:o:s:=:v:niezrozumiałe cyfrowanie	!	!	!	!	!	!	!	!	!	!	!	!	!	!	!	!	!	!	!	!	!	!	!
4D\	5? 3	.	8g/	.	8b\	.	4D/)	.	.	.	.	8g\	.	.	8b\	.	.	.	8d/L	.	.	.	.
.	.	.	8f#/J	.	8a\J)	.	.	.	.	.	.	8f#\J)	.	.	8a\J	.	.	.	8d/J	.	.	.	.
=35	=35	=35	=35	=35	=35	=35	=35	=35	=35	=35	=35	=35	=35	=35	=35	=35	=35	=35	=35	=35	=35	=35	=35
8G\L	.	.	4g/	.	4g/	.	4G\	-son	.	4d\	-son	4g\	-son	.	4g\	-son	.	2ryy	4d/	2r	2r	2r	.
*	*	*	*	*	*	*	*	*Xij	*	*	*Xij	*	*	*	*	*	*	*	*	*	*	*	*
8D\J	.	.	.	.	.	.	.	.	.	.	.	.	.	.	.	.	.	.	.	.	.	.	.
4GG/	.	.	4r	.	4r	.	4r	.	.	4r	.	4r	.	.	4r	.	.	.	4r	.	.	.	.
!	!	!	!LO:LB:g=original	!	!	!	!	!	!	!	!	!	!	!	!	!	!	!	!LO:LB:g=original	!	!	!	!
=36	=36	=36	=36	=36	=36	=36	=36	=36	=36	=36	=36	=36	=36	=36	=36	=36	=36	=36	=36	=36	=36	=36	=36
!LO:TX:a:t=3	!	!	!	!	!	!	!LO:TX:a:t=2	!	!	!LO:TX:a:t=2	!	!	!	!	!	!	!	!	!LO:TX:b:t=6.	!	!	!	!
!LO:N:vis=0	!	!	!	!	!	!	!LO:N:vis=0	!	!	!LO:N:vis=0	!	!	!	!	!	!	!	!	!LO:N:vis=00	!	!	!	!
1r	.	.	8e/L	.	8e/L	f	1r	.	.	1r	.	4r	.	.	4r	.	.	2ryy	0r	2r	2r	2r	.
.	.	.	16e/L	.	16e/L	.	.	.	.	.	.	.	.	.	.	.	.	.	.	.	.	.	.
.	.	.	16e/JJ	.	16e/JJ	.	.	.	.	.	.	.	.	.	.	.	.	.	.	.	.	.	.
.	.	.	4e/	.	4e/	.	.	.	.	.	.	8r	.	.	8r	.	.	.	.	.	.	.	.
*	*	*	*	*	*	*	*	*	*	*	*	*	*ij	*	*	*ij	*	*	*	*	*	*	*
.	.	.	.	.	.	.	.	.	.	.	.	8b\	e-	.	8dd\	e-	.	.	.	.	.	.	.
=37	=37	=37	=37	=37	=37	=37	=37	=37	=37	=37	=37	=37	=37	=37	=37	=37	=37	=37	=37	=37	=37	=37	=37
!	!	!	!LO:TX:a:t=1.	!	!LO:TX:b:t=1.	!	!	!	!	!	!	!	!	!	!	!	!	!	!	!	!	!	!
.	.	.	2r	.	2r	.	.	.	.	.	.	8b\L	-lei-	.	8dd\L	-lei-	.	2ryy	.	2r	2r	2r	.
.	.	.	.	.	.	.	.	.	.	.	.	8a\J	.	.	8cc#X\J	.	.	.	.	.	.	.	.
.	.	.	.	.	.	.	.	.	.	.	.	4a\	-son	.	4cc#\	-son	.	.	.	.	.	.	.
!	!	!	!	!	!LO:LB:g=original	!	!	!	!	!	!	!LO:LB:g=original	!	!	!	!	!	!	!	!	!	!	!
=38	=38	=38	=38	=38	=38	=38	=38	=38	=38	=38	=38	=38	=38	=38	=38	=38	=38	=38	=38	=38	=38	=38	=38
2r	.	.	8e/L	.	8e/L	.	4r	.	.	4r	.	4r	.	.	4r	.	.	2ryy	.	2r	2r	2r	.
.	.	.	16e/L	.	16e/L	.	.	.	.	.	.	.	.	.	.	.	.	.	.	.	.	.	.
.	.	.	16e/JJ	.	16e/JJ	.	.	.	.	.	.	.	.	.	.	.	.	.	.	.	.	.	.
.	.	.	4e/	.	8e/	.	8r	.	.	8r	.	8r	.	.	8r	.	.	.	.	.	.	.	.
.	.	.	.	.	8r	.	8E\	e-	.	8e\	e-	8b\	e-	.	8gg#X\	e-	.	.	.	.	.	.	.
=39	=39	=39	=39	=39	=39	=39	=39	=39	=39	=39	=39	=39	=39	=39	=39	=39	=39	=39	=39	=39	=39	=39	=39
!	!	!	!	!	!	!	!	!	!	!	!	!	!	!	!LO:SIC:s:=:v:8gg#	!	!	!	!	!	!	!	!
4r	.	.	4r	.	4r	.	4A\	-lei-	.	4e\	-lei-	8b\L	-lei-	.	8gg\L	-lei-	.	2ryy	.	2r	2r	2r	.
.	.	.	.	.	.	.	.	.	.	.	.	8cc#X\J	.	.	8aa\J	.	.	.	.	.	.	.	.
8r	.	.	8r	.	8r	.	8A\	-son	.	8e\	-son	8cc#\	-son	.	8aa\	-son	.	.	.	.	.	.	.
*	*	*	*	*	*	*	*	*	*	*	*	*	*Xij	*	*	*	*	*	*	*	*	*	*
8D\	.	.	8dd\	.	8ff#\	.	8d\	e-	.	8f#\	e-	8dd\	e-	.	8ff#\	e-	.	.	.	.	.	.	.
=40	=40	=40	=40	=40	=40	=40	=40	=40	=40	=40	=40	=40	=40	=40	=40	=40	=40	=40	=40	=40	=40	=40	=40
!	!	!	!	!	!	!	!	!	!	!	!	!	!	!	!	!	!	!	!LO:N:vis=0	!	!	!	!
4E\	8 6	.	8cc#X\L	.	(8ee\L	.	(4e\	-lei-	.	2e\	-lei-	(8cc#\L	-lei-	.	8ee\L	-lei-	.	2ryy	1r	2r	2r	2r	.
.	.	.	8b\	.	8dd\	.	.	.	.	.	.	8b\	.	.	8dd\	.	.	.	.	.	.	.	.
4E\	7 5	.	8a\	.	8cc#X\	.	4E\)	.	.	.	.	8a\	.	.	8cc#\	.	.	.	.	.	.	.	.
.	6 4	.	8g#X\J	.	8b\J)	.	.	.	.	.	.	8g#X\J)	.	.	8b\J	.	.	.	.	.	.	.	.
.	5 3	.	.	.	.	.	.	.	.	.	.	.	.	.	.	.	.	.	.	.	.	.	.
!	!	!	!	!	!	!	!LO:LB:g=original	!	!	!	!	!	!	!	!	!	!	!	!	!	!	!	!
=41	=41	=41	=41	=41	=41	=41	=41	=41	=41	=41	=41	=41	=41	=41	=41	=41	=41	=41	=41	=41	=41	=41	=41
!	!	!	!LO:SIC:t:=:v:4 kreski artykulacyjne	!	!	!	!	!	!	!	!	!	!	!	!	!	!	!	!	!	!	!	!
4AA/	.	.	8a/L	.	4a/	.	4A\	-son	.	4e\	-son	8a\	-son	.	4a\	-son	.	2ryy	.	2r	2r	2r	.
*	*	*	*	*	*	*	*	*	*	*	*	*	*ij	*	*	*Xij	*	*	*	*	*	*	*
.	.	.	8a/	.	.	.	.	.	.	.	.	8a\	e-	.	.	.	.	.	.	.	.	.	.
!	!	!LO:DY:b	!	!	!	!	!	!	!	!	!	!	!	!	!	!	!	!	!	!	!	!	!
4r	.	p	8a/	.	4r	.	4r	.	.	4r	.	8a\	-lei-	.	4r	.	.	.	.	.	.	.	.
.	.	.	8a/J	.	.	.	.	.	.	.	.	8a\	-son	.	.	.	.	.	.	.	.	.	.
*	*	*	*Xtremolo	*	*	*	*	*	*	*	*	*	*Xij	*	*	*	*	*	*	*	*	*	*
!	!	!	!	!	!	!	!	!	!	!LO:LB:g=original	!	!	!	!	!	!	!	!	!	!	!	!	!
=42	=42	=42	=42	=42	=42	=42	=42	=42	=42	=42	=42	=42	=42	=42	=42	=42	=42	=42	=42	=42	=42	=42	=42
!	!	!	!	!	!	!	!	!	!LO:DY:a	!	!	!	!	!	!	!	!LO:DY:a	!	!	!	!	!	!LO:DY:rj
4C#/	6	.	8r	.	8r	p	2C#/	e-	p	2c#\	e-	[<2a\	e-	.	2ggn\	e-	p	2ryy	4a/ 4A/	2r	2ee\	2gg\	p
.	.	.	8a/L|	.	8ggn\L	.	.	.	.	.	.	.	.	.	.	.	.	.	.	.	.	.	.
4r	.	.	8a/|	.	8gg\	.	.	.	.	.	.	.	.	.	.	.	.	.	4r	.	.	.	.
.	.	.	8a/J|	.	8gg\J	.	.	.	.	.	.	.	.	.	.	.	.	.	.	.	.	.	.
!	!	!	!	!	!	!	!	!	!	!	!	!	!	!	!LO:LB:g=original	!	!	!	!	!	!	!	!
=43	=43	=43	=43	=43	=43	=43	=43	=43	=43	=43	=43	=43	=43	=43	=43	=43	=43	=43	=43	=43	=43	=43	=43
4D\	5	.	8r	.	8r	.	2D/	-lei-	.	2d\	-lei-	2a\_<	.	.	2ff#\	-lei-	.	2ryy	4a/ 4A/	2r	2dd\	2ff#X\	.
.	.	.	8a/L|	.	8ff#\L	.	.	.	.	.	.	.	.	.	.	.	.	.	.	.	.	.	.
4r	.	.	8a/|	.	8ff#\	.	.	.	.	.	.	.	.	.	.	.	.	.	4r	.	.	.	.
.	.	.	8a/J|	.	8ff#\J	.	.	.	.	.	.	.	.	.	.	.	.	.	.	.	.	.	.
=44	=44	=44	=44	=44	=44	=44	=44	=44	=44	=44	=44	=44	=44	=44	=44	=44	=44	=44	=44	=44	=44	=44	=44
4E\	6	.	8r	.	8r	.	2E\	.	.	2e\	.	2a\_<	-lei-	.	2cc#\	.	.	2ryy	4a/ 4A/	2r	2g/	2cc#X\	.
.	.	.	8a/L|	.	8cc#'\L	.	.	.	.	.	.	.	.	.	.	.	.	.	.	.	.	.	.
4r	.	.	8a/|	.	8cc#'\	.	.	.	.	.	.	.	.	.	.	.	.	.	4r	.	.	.	.
.	.	.	8a/J|	.	8cc#'\J	.	.	.	.	.	.	.	.	.	.	.	.	.	.	.	.	.	.
!	!	!	!	!	!	!	!	!	!	!	!	!LO:LB:g=original	!	!	!	!	!	!	!	!	!	!	!
=45	=45	=45	=45	=45	=45	=45	=45	=45	=45	=45	=45	=45	=45	=45	=45	=45	=45	=45	=45	=45	=45	=45	=45
4F#\	6	.	8r	.	8r	.	2F#\	.	.	2f#\	.	2a\]	.	.	2dd\	.	.	2ryy	4a/ 4A/	2r	2a/	2dd\	.
.	.	.	8a/L|	.	8dd\L	.	.	.	.	.	.	.	.	.	.	.	.	.	.	.	.	.	.
4r	.	.	8a/|	.	8dd\	.	.	.	.	.	.	.	.	.	.	.	.	.	4r	.	.	.	.
.	.	.	8a/J|	.	8dd\J	.	.	.	.	.	.	.	.	.	.	.	.	.	.	.	.	.	.
=46	=46	=46	=46	=46	=46	=46	=46	=46	=46	=46	=46	=46	=46	=46	=46	=46	=46	=46	=46	=46	=46	=46	=46
4C#\	6	.	8r	.	8r	.	2C#/	.	.	2e\	.	[<2a\	.	.	2gg\	.	.	2ryy	4a/ 4A/	2r	2cc#X\	2gg\	.
.	.	.	8a/L|	.	8gg\L	.	.	.	.	.	.	.	.	.	.	.	.	.	.	.	.	.	.
4r	.	.	8a/|	.	8gg\	.	.	.	.	.	.	.	.	.	.	.	.	.	4r	.	.	.	.
.	.	.	8a/J|	.	8gg\J	.	.	.	.	.	.	.	.	.	.	.	.	.	.	.	.	.	.
=47	=47	=47	=47	=47	=47	=47	=47	=47	=47	=47	=47	=47	=47	=47	=47	=47	=47	=47	=47	=47	=47	=47	=47
4D\	6	.	8r	.	8r	.	2D/	.	.	2d\	.	2a\]	.	.	2ff#\	.	.	2ryy	4a/ 4A/	2r	2dd\	2ff#X\	.
.	.	.	8a/L|	.	8ff#\L	.	.	.	.	.	.	.	.	.	.	.	.	.	.	.	.	.	.
4r	.	.	8a/|	.	8ff#\	.	.	.	.	.	.	.	.	.	.	.	.	.	4r	.	.	.	.
.	.	.	8a/J|	.	8ff#\J	.	.	.	.	.	.	.	.	.	.	.	.	.	.	.	.	.	.
!	!	!	!	!	!	!	!	!	!	!	!	!	!	!	!	!	!	!	!	!	!LO:LB:g=original	!	!
=48	=48	=48	=48	=48	=48	=48	=48	=48	=48	=48	=48	=48	=48	=48	=48	=48	=48	=48	=48	=48	=48	=48	=48
4E\	6	.	8r	.	8r	.	2E\	.	.	2e\	.	2a\	.	.	2cc#\	.	.	2ryy	4a/ 4A/	2r	2g/	2cc#X\	.
.	.	.	8a/L|	.	8cc#\L	.	.	.	.	.	.	.	.	.	.	.	.	.	.	.	.	.	.
4r	.	.	8a/|	.	8cc#\	.	.	.	.	.	.	.	.	.	.	.	.	.	4r	.	.	.	.
.	.	.	8a/J|	.	8cc#\J	.	.	.	.	.	.	.	.	.	.	.	.	.	.	.	.	.	.
!	!	!	!LO:LB:g=original	!	!LO:LB:g=original	!	!	!	!	!	!	!	!	!	!	!	!	!	!	!	!	!	!
=49	=49	=49	=49	=49	=49	=49	=49	=49	=49	=49	=49	=49	=49	=49	=49	=49	=49	=49	=49	=49	=49	=49	=49
4F#\	6	.	8r	.	8r	.	4F#\	.	.	4.f#\	-son	4.a\	-son	.	4.dd\	-son	.	2ryy	4a/ 4A/	2r	2a/	2dd\	.
.	.	.	8a/L	.	8dd\L	.	.	.	.	.	.	.	.	.	.	.	.	.	.	.	.	.	.
4D\	.	.	8a/	.	8dd\	.	4D\	.	.	.	.	.	.	.	.	.	.	.	4r	.	.	.	.
.	.	.	8fn/J	.	8dd\J	.	.	.	.	8B\	e-	8fn\	e-	.	8dd\	e-	.	.	.	.	.	.	.
=50	=50	=50	=50	=50	=50	=50	=50	=50	=50	=50	=50	=50	=50	=50	=50	=50	=50	=50	=50	=50	=50	=50	=50
!	!	!	!	!	!	!	!	!	!	!	!	!	!	!	!	!	!	!	!LO:TX:a:t=2.	!	!	!	!
!	!	!	!	!	!	!	!	!	!	!	!	!	!	!	!	!	!	!	!LO:N:vis=0	!	!	!	!
8A\L	#	.	8e/L|	.	(8cc#\L	.	8A\L	.	.	(8A\L	-lei-	(8e\L	-lei-	.	(8cc#\L	-lei-	.	2ryy	1r	2r	8e/L	(8cc#X\L	.
!	!	!	!	!	!	!	!	!	!	!	!	!LO:SIC:s:=:v:8fn	!	!	!	!	!	!	!	!	!	!	!
8G#X\	n	.	8fn/|	.	8dd\)	.	8G#X\	.	.	8B\)	.	8f#\J)	.	.	8dd\)	.	.	.	.	.	8fn/	8dd\	.
8A\	7	.	8e/|	.	(8cc#\	.	8A\	.	.	(8A\	.	(8e\L	.	.	(8cc#\	.	.	.	.	.	8e/	8cc#\	.
!	!	!	!	!	!	!	!	!	!	!	!	!LO:SIC:s:=:v:8f	!	!	!	!	!	!	!	!	!	!	!
8G#\J	.	.	8f/J	.	8dd\J)	.	8G#\J	.	.	8B\J)	.	8f#\J)	.	.	8dd\J)	.	.	.	.	.	8f/J	8dd\J)	.
=51	=51	=51	=51	=51	=51	=51	=51	=51	=51	=51	=51	=51	=51	=51	=51	=51	=51	=51	=51	=51	=51	=51	=51
4A\	#	.	4e/	.	4cc#\	.	4A\	-son	.	4A\	-son	4e\	-son	.	4cc#\	-son	.	2ryy	.	2r	4e/	4cc#\|	.
16A'\LL	.	.	4r	.	4r	.	4r	.	.	4r	.	4r	.	.	4r	.	.	.	.	.	4r	4r	.
16Gn'\	.	.	.	.	.	.	.	.	.	.	.	.	.	.	.	.	.	.	.	.	.	.	.
16F#'\	.	.	.	.	.	.	.	.	.	.	.	.	.	.	.	.	.	.	.	.	.	.	.
16E'\JJ	.	.	.	.	.	.	.	.	.	.	.	.	.	.	.	.	.	.	.	.	.	.	.
!LO:LB:g=original	!	!	!	!	!	!	!	!	!	!	!	!	!	!	!	!	!	!	!	!LO:LB:g=original	!	!LO:LB:g=original	!
=52	=52	=52	=52	=52	=52	=52	=52	=52	=52	=52	=52	=52	=52	=52	=52	=52	=52	=52	=52	=52	=52	=52	=52
*	*	*	*	*	*	*	*	*	*	*	*	*	*	*	*	*	*	*	*	*^	*	*	*
!LO:TX:a:t=Tutti	!	!	!	!	!	!	!	!	!	!	!	!	!	!	!	!	!	!	!	!	!	!	!	!
!LO:TX:a:t=P:problem:mixed beam	!	!	!	!	!	!LO:DY:b:t=fo	!LO:TX:a:t=Tu.	!	!	!	!	!	!	!LO:DY:rj:b:t=forte	!	!	!LO:DY:a	!	!	!	!	!	!	!
8D\L	.	.	4.f#X/	.	4.dd\	f	8D\L	Ky-	.	4A\	Ky-	4.f#X\	Ky-	f	4.dd\	Ky-	f	2ryy	8dd/L 8d/	4.d/	4.F#\	4.f#X/	4.dd\	.
8F#\	.	.	.	.	.	.	8F#\	.	.	.	.	.	.	.	.	.	.	.	16dd/L 16d/	.	.	.	.	.
.	.	.	.	.	.	.	.	.	.	.	.	.	.	.	.	.	.	.	16dd/JJ 16d/	.	.	.	.	.
8A\	.	.	.	.	.	.	8A\J	.	.	4A\	-ri-	.	.	.	.	.	.	.	8dd/L 8d/	.	.	.	.	.
8AA/J	.	.	16g/LL	.	(16ee\LL	.	8AA/	-ri-	.	.	.	(16g\LL	-ri-	.	(16ee\LL	-ri-	.	.	8a/J 8A/	8e/	8A\	(16g/LL	(16ee\LL	.
.	.	.	16e/JJ	.	16cc#\JJ)	.	.	.	.	.	.	16e\JJ)	.	.	16cc#\JJ)	.	.	.	.	.	.	16e/JJ)	16cc#\JJ)	.
!	!	!	!	!	!	!	!	!	!	!LO:LB:g=original	!	!	!	!	!	!	!	!	!	!	!	!	!	!
=53	=53	=53	=53	=53	=53	=53	=53	=53	=53	=53	=53	=53	=53	=53	=53	=53	=53	=53	=53	=53	=53	=53	=53	=53
4D\	.	.	8f#/L	.	8dd\L	.	4D\	-e	.	4A\	-e	8f#\	-e	.	8dd\	-e	.	2ryy	4dd/ 4d/	4d/	4F#\	8f#/L	8dd\L	.
.	.	.	8b/	.	8gg\|	.	.	.	.	.	.	(8b\L	e-	.	8gg\L	e-	.	.	.	.	.	8b/	8gg\	.
4r	.	.	8a/	.	8ff#\|	.	4r	.	.	4r	.	8a\	.	.	8ff#\	.	.	.	4r	4r	4ryy	8a/	8ff#\	.
.	.	.	8g/J	.	8ee\J|	.	.	.	.	.	.	8g\J)	.	.	8ee\J	lei-	.	.	.	.	.	8g/J	8ee\J	.
=54	=54	=54	=54	=54	=54	=54	=54	=54	=54	=54	=54	=54	=54	=54	=54	=54	=54	=54	=54	=54	=54	=54	=54	=54
!LO:TX:a:t=P:problem:mixed beam	!	!	!	!	!	!	!	!	!	!	!	!	!	!	!	!	!	!	!	!	!	!	!	!
*	*	*	*	*	*	*	*	*ij	*	*	*ij	*	*	*	*	*	*	*	*	*	*	*	*	*
8D\L	.	.	4.f#/	.	4.dd\	.	8D\L	Ky-	.	4A\	Ky-	4.f#\	-lei-	.	4.dd\	-son	.	2ryy	8dd/L 8d/	4.d/	4.F#\	4.f#/	4.dd\	.
8F#\	.	.	.	.	.	.	8F#\	.	.	.	.	.	.	.	.	.	.	.	16dd/L 16d/	.	.	.	.	.
.	.	.	.	.	.	.	.	.	.	.	.	.	.	.	.	.	.	.	16dd/JJ 16d/	.	.	.	.	.
8A\	.	.	.	.	.	.	8A\J	.	.	4A\	-ri-	.	.	.	.	.	.	.	8dd/L 8d/	.	.	.	.	.
8AA/J	.	.	16g/LL	.	(16ee\LL	.	8AA/	-ri-	.	.	.	(16g\LL	.	.	(16ee\LL	e-	.	.	8a/J 8A/	8e/	8A\	(16g/LL	(16ee\LL	.
.	.	.	16e/JJ	.	16cc#\JJ)	.	.	.	.	.	.	16e\JJ)	.	.	16cc#\JJ)	.	.	.	.	.	.	16e/JJ)	16cc#\JJ)	.
!	!	!	!	!	!	!	!LO:LB:g=original	!	!	!	!	!LO:LB:g=original	!	!	!LO:LB:g=original	!	!	!	!	!	!	!	!	!
=55	=55	=55	=55	=55	=55	=55	=55	=55	=55	=55	=55	=55	=55	=55	=55	=55	=55	=55	=55	=55	=55	=55	=55	=55
4D\	.	.	8f#/L	.	8dd\L	.	4D\	-e	.	4A\	-e	(8f#\L	.	.	8dd\L	-lei-	.	2ryy	4dd/ 4d/	4d/	4F#\	8f#/L|	8dd\L	.
*	*	*	*	*	*	*	*	*Xij	*	*	*Xij	*	*	*	*	*	*	*	*	*	*	*	*	*
.	.	.	8g/	.	8bb\	.	.	.	.	.	.	8g\J	.	.	8bb\	.	.	.	.	.	.	8g/|	8bb\	.
4r	.	.	8f#/	.	8aa\	.	4r	.	.	4r	.	8f#\L	.	.	8aa\	.	.	.	4r	4r	4ryy	8f#/|	8aa\	.
.	.	.	8e/J	.	8gg\J	.	.	.	.	.	.	8e\J)	.	.	8gg\J	.	.	.	.	.	.	8e/J|	8gg\J	.
*	*	*	*	*	*	*	*	*	*	*	*	*	*	*	*	*	*	*	*	*v	*v	*	*	*
!	!	!	!	!	!	!	!	!	!	!	!	!	!	!	!	!	!	!	!LO:LB:g=original	!	!	!	!
=56	=56	=56	=56	=56	=56	=56	=56	=56	=56	=56	=56	=56	=56	=56	=56	=56	=56	=56	=56	=56	=56	=56	=56
!	!	!	!LO:TX:a:t=P:problem:mixed beam	!	!	!	!	!	!	!	!	!	!	!	!	!	!	!	!LO:TX:b:t=1.	!LO:TX:a:t=1.	!	!	!
4r	.	.	8d/L	.	4ff#\	.	4r	.	.	4r	.	(8d\L	.	.	4ff#\	.	.	2ryy	2r	2r	4d/	4ff#\	.
.	.	.	8dd\J	.	.	.	.	.	.	.	.	8dd\J	.	.	.	.	.	.	.	.	.	.	.
8r	.	.	16cc#\LL	.	(16ee\LL	.	8r	.	.	8r	.	16cc#\LL	.	.	16ee\LL	.	.	.	.	.	4r	4r	.
.	.	.	16b\	.	16dd\	.	.	.	.	.	.	16b\	.	.	(16dd\	.	.	.	.	.	.	.	.
8G\|	3	.	16a\	.	16cc#\	.	8G\	e-	.	8B\	e-	16a\	.	.	16cc#\)	.	.	.	.	.	.	.	.
.	.	.	16g\JJ	.	16b\JJ)	.	.	.	.	.	.	16g\JJ)	.	.	16b\JJ	.	.	.	.	.	.	.	.
=57	=57	=57	=57	=57	=57	=57	=57	=57	=57	=57	=57	=57	=57	=57	=57	=57	=57	=57	=57	=57	=57	=57	=57
*	*	*	*	*	*	*	*	*	*	*	*	*	*	*	*	*	*	*	*	*^	*	*	*
!LO:TX:a:t=P:problem:mixed beam	!	!	!	!	!	!	!	!	!	!	!	!	!	!	!	!	!	!	!	!	!	!	!	!
8A\L	8_ 6_	.	4f#/	.	4a/	.	4A\	-lei-	.	2A\	-lei-	(4f#\	.	.	(4a\	.	.	2ryy	8a/L 8A/	4a/	4f#\	4ff#X\	4aa\	.
8A\	.	.	.	.	.	.	.	.	.	.	.	.	.	.	.	.	.	.	16a/L 16A/	.	.	.	.	.
.	x	.	.	.	.	.	.	.	.	.	.	.	.	.	.	.	.	.	16a/JJ 16A/	.	.	.	.	.
8AA\	.	.	4e/	.	4g/	.	4AA/	.	.	.	.	4e\)	.	.	4g\)	.	.	.	8a/L 8A/	4g/	4e\	4ee\	4gg\	.
8AA\J	7 5	.	.	.	.	.	.	.	.	.	.	.	.	.	.	.	.	.	8a/J 8A/	.	.	.	.	.
=58	=58	=58	=58	=58	=58	=58	=58	=58	=58	=58	=58	=58	=58	=58	=58	=58	=58	=58	=58	=58	=58	=58	=58	=58
4D\	.	.	4d/	.	4f#/	.	4D/	-son	.	4A\	-son	4d\	-son	.	4f#/	-son	.	2ryy	4dd/ 4d/	4f#/	4d\	4dd\	4ff#\	.
4r	.	.	4r	.	4r	.	4r	.	.	4r	.	4r	.	.	4r	.	.	.	4r	4r	4ryy	4r	4r	.
*	*	*	*	*	*	*	*	*	*	*	*	*	*	*	*	*	*	*	*	*v	*v	*	*	*
=59	=59	=59	=59	=59	=59	=59	=59	=59	=59	=59	=59	=59	=59	=59	=59	=59	=59	=59	=59	=59	=59	=59	=59
!	!	!	!	!	!	!	!LO:TX:a:t=3	!	!	!LO:TX:a:t=2	!	!LO:TX:a:t=2	!	!	!LO:TX:a:t=2	!	!	!	!	!LO:TX:a:t=3.	!	!	!
!LO:N:vis=0	!	!	!	!	!	!	!LO:N:vis=0	!	!	!LO:N:vis=0	!	!LO:N:vis=0	!	!	!LO:N:vis=0	!	!	!	!	!LO:N:vis=0	!	!	!
1r	.	.	4r	.	4r	.	1r	.	.	1r	.	1r	.	.	1r	.	.	2ryy	8a/L 8A/	1r	4r	4r	.
.	.	.	.	.	.	.	.	.	.	.	.	.	.	.	.	.	.	.	16a/L 16A/	.	.	.	.
.	.	.	.	.	.	.	.	.	.	.	.	.	.	.	.	.	.	.	16a/JJ 16A/	.	.	.	.
.	.	.	8r	.	8r	.	.	.	.	.	.	.	.	.	.	.	.	.	4a/ 4A/	.	8r	8r	.
.	.	.	8a/	.	8dd\	.	.	.	.	.	.	.	.	.	.	.	.	.	.	.	8dd\	8ff#\	.
!	!	!	!	!	!LO:LB:g=original	!	!	!	!	!	!	!	!	!	!	!	!	!	!	!	!	!	!
=60	=60	=60	=60	=60	=60	=60	=60	=60	=60	=60	=60	=60	=60	=60	=60	=60	=60	=60	=60	=60	=60	=60	=60
!	!	!	!	!	!	!	!	!	!	!	!	!	!	!	!	!	!	!	!LO:TX:a:t=1.	!	!	!	!
.	.	.	8.e/L	.	8.cc#\L|	.	.	.	.	.	.	.	.	.	.	.	.	2ryy	2r	.	(8.cc#X\L	(8.ee\L|	.
.	.	.	32f#/LL	.	(32dd\LL	.	.	.	.	.	.	.	.	.	.	.	.	.	.	.	32dd\LL	32ff#\LL	.
.	.	.	32g/JJJ	.	32ee\JJJ)	.	.	.	.	.	.	.	.	.	.	.	.	.	.	.	32ee\JJJ)	32gg\JJJ)	.
.	.	.	4f#/	.	4dd\	.	.	.	.	.	.	.	.	.	.	.	.	.	.	.	8dd\|	8ff#\|	.
.	.	.	.	.	.	.	.	.	.	.	.	.	.	.	.	.	.	.	.	.	8r	8r	.
!	!	!	!LO:LB:g=original	!	!	!	!	!	!	!	!	!	!	!	!	!	!	!	!	!	!LO:LB:g=original	!	!
=61	=61	=61	=61	=61	=61	=61	=61	=61	=61	=61	=61	=61	=61	=61	=61	=61	=61	=61	=61	=61	=61	=61	=61
2r	.	.	4r	.	4r	.	2r	.	.	4r	.	4r	.	.	4r	.	.	2ryy	8a/L 8A/	2r	4r	4r	.
.	.	.	.	.	.	.	.	.	.	.	.	.	.	.	.	.	.	.	16a/L 16A/	.	.	.	.
.	.	.	.	.	.	.	.	.	.	.	.	.	.	.	.	.	.	.	16a/JJ 16A/	.	.	.	.
.	.	.	8r	.	8r	.	.	.	.	8r	.	8r	.	.	8r	.	.	.	4a/ 4A/	.	8r	8r	.
*	*	*	*	*	*	*	*	*	*	*	*	*	*ij	*	*	*	*	*	*	*	*	*	*
!	!	!	!	!	!	!	!	!	!	!	!	!LO:SIC:s:=:v:8a	!	!	!	!	!	!	!	!	!	!	!
.	.	.	8d/	.	8ff#\	.	.	.	.	8d\	e-	8cc#\	e-	.	8ff#\	e-	.	.	.	.	8dd\|	8ff#\|	.
=62	=62	=62	=62	=62	=62	=62	=62	=62	=62	=62	=62	=62	=62	=62	=62	=62	=62	=62	=62	=62	=62	=62	=62
*	*	*	*	*	*	*	*	*	*	*	*	*	*	*	*	*	*	*	*^	*^	*	*	*
4r	.	.	8.c#/L	.	8.ee\L|	.	4r	.	.	(8.c#\L	-lei-	4a\	-lei-	.	8.ee\L	-lei-	.	2ryy	4r	4ryy	4r	4ryy	8.cc#X\L	(8.ee\L	.
.	.	.	32d/LL	.	(32ff#\LL	.	.	.	.	32d\LL)	.	.	.	.	32ff#\LL	.	.	.	.	.	.	.	(32dd\LL	32ff#\LL	.
.	.	.	32e/JJJ	.	32gg\JJJ)	.	.	.	.	32e\JJJ	.	.	.	.	32gg\JJJ	.	.	.	.	.	.	.	32ee\JJJ)	32gg\JJJ)	.
!	!	!	!LO:TX:a:t=P:problem:mixed beam	!	!	!	!	!	!	!	!	!	!	!	!	!	!	!	!	!	!	!	!	!	!
8r	.	.	8d/L	.	8ff#\L	.	8r	.	.	8d\	-son	8a\	-son	.	8ff#\	-son	.	.	8r	8ryy	8r	8ryy	8dd\L|	8ff#\L|	.
!	!	!	!	!	!	!	!	!	!	!	!	!	!	!	!	!	!	!	!LO:SIC:n=1 s=8ee t=lub cc:v	!	!	!	!	!	!
*	*	*	*	*	*	*	*	*ij	*	*	*ij	*	*	*	*	*ij	*	*	*	*	*	*	*	*	*
8D\	.	.	8ff#\J	.	8ddd\J	.	8D\	e-	.	8A\	e-	8f#\	e-	.	8dd\	e-	.	.	8ee/	8a\	8f#/	8d\	8dd\J|	8ff#\J|	.
=63	=63	=63	=63	=63	=63	=63	=63	=63	=63	=63	=63	=63	=63	=63	=63	=63	=63	=63	=63	=63	=63	=63	=63	=63	=63
!LO:TX:a:t=P:problem:mixed beam	!	!	!	!	!	!	!	!	!	!	!	!	!	!	!	!	!	!	!	!	!	!	!	!	!
8A\L	4 6	.	8ff#\L	.	8ddd\L	.	8A\	-lei-	.	8A\	-lei-	8f#\	-lei-	.	8dd\	-lei-	.	2ryy	8ff#/L	8dd\L	8f#/L	8d\L	8dd\L|	8ff#\L	.
8AA/J	3 5	.	8ee\J	.	8ccc#\J	.	8AA/	-son	.	8A\	-son	8e\	-son	.	8cc#\	-son	.	.	8ee/J	8a\J	8e/J	8A\J	8cc#X\J|	8ee\J	.
*	*	*	*	*	*	*	*	*	*	*	*	*	*	*	*	*Xij	*	*	*	*	*	*	*	*	*
4r	.	.	4r	.	4r	.	4r	.	.	4r	.	4r	.	.	4r	.	.	.	4r	4ryy	4r	4ryy	4r	4r	.
*	*	*	*	*	*	*	*	*	*	*	*	*	*	*	*	*	*	*	*v	*v	*	*	*	*	*
*	*	*	*	*	*	*	*	*	*	*	*	*	*	*	*	*	*	*	*	*v	*v	*	*	*
!	!	!	!	!	!	!	!	!	!	!	!	!	!	!	!	!	!	!	!	!	!	!LO:LB:g=original	!
=64	=64	=64	=64	=64	=64	=64	=64	=64	=64	=64	=64	=64	=64	=64	=64	=64	=64	=64	=64	=64	=64	=64	=64
!	!	!	!	!	!	!	!LO:TX:a:t=3	!	!	!LO:TX:a:t=2	!	!LO:TX:a:t=2	!	!	!LO:TX:a:t=2	!	!	!	!	!LO:TX:b:t=3.	!	!	!
!LO:N:vis=0	!	!	!	!	!	!	!LO:N:vis=0	!	!	!LO:N:vis=0	!	!LO:N:vis=0	!	!	!LO:N:vis=0	!	!	!	!	!LO:N:vis=0	!	!	!
1r	.	.	4r	.	4r	.	1r	.	.	1r	.	1r	.	.	1r	.	.	2ryy	8a/L 8A/	1r	4r	4r	.
.	.	.	.	.	.	.	.	.	.	.	.	.	.	.	.	.	.	.	16a/L 16A/	.	.	.	.
.	.	.	.	.	.	.	.	.	.	.	.	.	.	.	.	.	.	.	16a/JJ 16A/	.	.	.	.
.	.	.	8r	.	8r	.	.	.	.	.	.	.	.	.	.	.	.	.	4a/ 4A/	.	8r	8r	.
!	!	!	!	!LO:DY:a	!	!	!	!	!	!	!	!	!	!	!	!	!	!	!	!	!	!	!
.	.	.	8f#/	p	8dd\	.	.	.	.	.	.	.	.	.	.	.	.	.	.	.	8dd\	8ff#\|	.
=65	=65	=65	=65	=65	=65	=65	=65	=65	=65	=65	=65	=65	=65	=65	=65	=65	=65	=65	=65	=65	=65	=65	=65
!	!	!	!	!	!	!	!	!	!	!	!	!	!	!	!	!	!	!	!LO:TX:a:t=1.	!	!	!	!
.	.	.	8.e/L	.	8.cc#\L|	.	.	.	.	.	.	.	.	.	.	.	.	2ryy	2r	.	(8.cc#X\L	8.eeM\L|	.
.	.	.	32f#/LL	.	(32dd\LL	.	.	.	.	.	.	.	.	.	.	.	.	.	.	.	32dd\LL	32ff#\LL	.
.	.	.	32g/JJJ	.	32ee\JJJ)	.	.	.	.	.	.	.	.	.	.	.	.	.	.	.	32ee\JJJ)	32gg\JJJ	.
.	.	.	4f#/	.	4dd\	.	.	.	.	.	.	.	.	.	.	.	.	.	.	.	8dd\	4ff#\	.
.	.	.	.	.	.	.	.	.	.	.	.	.	.	.	.	.	.	.	.	.	8r	.	.
!	!	!	!	!	!	!	!	!	!	!LO:LB:g=original	!	!	!	!	!	!	!	!	!	!	!	!	!
=66	=66	=66	=66	=66	=66	=66	=66	=66	=66	=66	=66	=66	=66	=66	=66	=66	=66	=66	=66	=66	=66	=66	=66
2r	.	.	4r	.	4r	.	2r	.	.	4r	.	4r	.	.	4r	.	.	2ryy	8a/L 8A/	2r	4r	4r	.
.	.	.	.	.	.	.	.	.	.	.	.	.	.	.	.	.	.	.	16a/L 16A/	.	.	.	.
.	.	.	.	.	.	.	.	.	.	.	.	.	.	.	.	.	.	.	16a/JJ 16A/	.	.	.	.
.	.	.	8r	.	8r	.	.	.	.	8r	.	8r	.	.	8r	.	.	.	4a/ 4A/	.	8r	8r	.
.	.	.	8d/	.	8ff#\	.	.	.	.	8d\	e-	8a\	e-	.	8ff#\	e-	.	.	.	.	8dd\|	8ff#\|	.
!	!	!	!	!	!	!	!	!	!	!	!	!	!	!	!	!	!	!	!LO:LB:g=original	!LO:LB:g=original	!	!	!
=67	=67	=67	=67	=67	=67	=67	=67	=67	=67	=67	=67	=67	=67	=67	=67	=67	=67	=67	=67	=67	=67	=67	=67
*	*	*	*	*	*	*	*	*	*	*	*	*	*	*	*	*	*	*	*	*^	*	*	*
4r	.	.	8.c#/L	.	8.ee\L|	.	4r	.	.	(8.c#\L	-lei-	4a\	-lei-	.	8.ee\L	-lei-	.	2ryy	4r	4r	4ryy	(8.cc#X\L	(8.ee\L	.
.	.	.	32d/LL	.	(32ff#\LL	.	.	.	.	32d\LL	.	.	.	.	32ff#\LL	.	.	.	.	.	.	32dd\LL	32ff#\LL	.
.	.	.	32e/JJJ	.	32gg\JJJ)	.	.	.	.	32e\JJJ)	.	.	.	.	32gg\JJJ	.	.	.	.	.	.	32ee\JJJ)	32gg\JJJ)	.
!	!	!	!LO:TX:a:t=P:problem:mixed beam	!	!	!	!	!	!	!	!	!	!	!	!	!	!	!	!	!	!	!	!	!
8r	.	.	8d/L	.	8ff#\L	.	8r	.	.	8d\	-son	8a\	-son	.	8ff#\	-son	.	.	8r	8r	8ryy	8dd\L|	8ff#\L|	.
*	*	*	*	*	*	*	*	*	*	*	*	*	*	*	*	*ij	*	*	*	*	*	*	*	*
8D\	.	.	8ff#\J	.	8ddd\J	.	8D\	e-	.	8A\	e-	8f#\	e-	.	8dd\	e-	.	.	8dd/ 8d/	8f#/	8d\	8dd\J|	8ff#\J|	.
=68	=68	=68	=68	=68	=68	=68	=68	=68	=68	=68	=68	=68	=68	=68	=68	=68	=68	=68	=68	=68	=68	=68	=68	=68
!LO:TX:a:t=P:problem:mixed beam	!	!	!	!	!	!	!	!	!	!	!	!	!	!	!	!	!	!	!	!	!	!	!	!
8A\L	4 6	.	8ff#\L	.	8ddd\L	.	8A\	-lei-	.	8A\	-lei-	8f#\	-lei-	.	8dd\	-lei-	.	2ryy	8dd/L 8d/	8f#/L	8d\L	8dd\L|	(8ff#\L	.
8AA/J	3 5	.	8ee\J	.	8ccc#\J	.	8AA/	-son	.	8A\	-son	8e\	-son	.	8cc#\	-son	.	.	8a/J 8A/	8e/J	8A\J	8cc#X\J|	8ee\J)	.
*	*	*	*	*	*	*	*	*Xij	*	*	*Xij	*	*Xij	*	*	*Xij	*	*	*	*	*	*	*	*
8r	.	.	16d/LL	.	(16d/LL	.	8r	.	.	8r	.	8r	.	.	8r	.	.	.	4r	4r	4ryy	4r	8r	.
.	.	.	16f#/	.	16f#/	.	.	.	.	.	.	.	.	.	.	.	.	.	.	.	.	.	.	.
8F#t\m	6	.	16a/	.	16a/	.	8F#\	e-	.	8d\	e-	8f#\	e-	.	8a\	e-	.	.	.	.	.	.	8aa\|	.
.	.	.	16ccn/JJ	.	16ccn/JJ)	.	.	.	.	.	.	.	.	.	.	.	.	.	.	.	.	.	.	.
*	*	*	*	*	*	*	*	*	*	*	*	*	*	*	*	*	*	*	*	*v	*v	*	*	*
!	!	!	!	!	!LO:LB:g=original	!	!	!	!	!	!	!	!	!	!	!	!	!	!	!	!	!	!
=69	=69	=69	=69	=69	=69	=69	=69	=69	=69	=69	=69	=69	=69	=69	=69	=69	=69	=69	=69	=69	=69	=69	=69
*	*	*	*	*	*tremolo	*	*	*	*	*	*	*	*	*	*	*	*	*	*	*	*	*	*
!	!	!	!	!	!	!	!	!	!	!	!	!	!	!	!	!	!	!	!LO:TX:a:t=6.	!LO:TX:a:t=6.	!	!	!
!	!	!	!	!	!	!	!	!	!	!	!	!	!	!	!	!	!	!	!LO:N:vis=00	!LO:N:vis=00	!	!	!
8G\L	3_	.	8b\L	.	16b\LL	.	8G\L	-lei-	.	(<2d\	-lei-	2g\	-lei-	.	2b\	-lei-	.	2ryy	0r	0r	2gg\	2bb\	.
.	.	.	.	.	16b\	.	.	.	.	.	.	.	.	.	.	.	.	.	.	.	.	.	.
8F#\	.	.	16dd\L	.	16b\	.	8F#\	.	.	.	.	.	.	.	.	.	.	.	.	.	.	.	.
.	.	.	16cc#X\JJ	.	16b\	.	.	.	.	.	.	.	.	.	.	.	.	.	.	.	.	.	.
8E\	.	.	16b/LL	.	16b\	.	8E\	.	.	.	.	.	.	.	.	.	.	.	.	.	.	.	.
.	.	.	16a/	.	16b\	.	.	.	.	.	.	.	.	.	.	.	.	.	.	.	.	.	.
8D\J	.	.	16g/	.	16b\	.	8D\J	.	.	.	.	.	.	.	.	.	.	.	.	.	.	.	.
.	x	.	16f#/JJ	.	16b\JJ	.	.	.	.	.	.	.	.	.	.	.	.	.	.	.	.	.	.
!LO:LB:g=original	!	!	!	!	!	!	!LO:LB:g=original	!	!	!	!	!	!	!	!	!	!	!	!	!	!	!	!
=70	=70	=70	=70	=70	=70	=70	=70	=70	=70	=70	=70	=70	=70	=70	=70	=70	=70	=70	=70	=70	=70	=70	=70
4C#/	7_	.	16e/LL	.	(16b\LL	.	2C#/	.	.	2e\)	.	2b\	.	.	2gg\	.	.	2ryy	.	.	2gg\	2bb\	.
.	.	.	16e/	.	16ee\	.	.	.	.	.	.	.	.	.	.	.	.	.	.	.	.	.	.
.	.	.	16e/	.	16gg\	.	.	.	.	.	.	.	.	.	.	.	.	.	.	.	.	.	.
.	.	.	16e/	.	16ff#\JJ)	.	.	.	.	.	.	.	.	.	.	.	.	.	.	.	.	.	.
8r	.	.	16e/	.	(16ee\LL	.	.	.	.	.	.	.	.	.	.	.	.	.	.	.	.	.	.
.	x	.	16e/	.	16dd\	.	.	.	.	.	.	.	.	.	.	.	.	.	.	.	.	.	.
8C#/	.	.	16e/	.	16cc#X\	.	.	.	.	.	.	.	.	.	.	.	.	.	.	.	.	.	.
.	.	.	16e/JJ	.	16b\JJ)	.	.	.	.	.	.	.	.	.	.	.	.	.	.	.	.	.	.
!	!	!	!LO:LB:g=original	!	!	!	!	!	!	!	!	!	!	!	!	!	!	!	!	!	!	!	!
=71	=71	=71	=71	=71	=71	=71	=71	=71	=71	=71	=71	=71	=71	=71	=71	=71	=71	=71	=71	=71	=71	=71	=71
8F#\L	7_	.	16a/LL|	.	16a/LL	.	8F#\L	.	.	(<2c#\	.	2a\	.	.	2gg\	.	.	2ryy	.	.	2ff#\	2aa\	.
.	.	.	16b/	.	16a/	.	.	.	.	.	.	.	.	.	.	.	.	.	.	.	.	.	.
8E\	.	.	16cc#/	.	16a/	.	8E\	.	.	.	.	.	.	.	.	.	.	.	.	.	.	.	.
.	.	.	16b/JJ	.	16a/	.	.	.	.	.	.	.	.	.	.	.	.	.	.	.	.	.	.
8D\	.	.	16a/LL	.	16a/	.	8D\	.	.	.	.	.	.	.	.	.	.	.	.	.	.	.	.
.	x	.	16g/	.	16a/	.	.	.	.	.	.	.	.	.	.	.	.	.	.	.	.	.	.
8C#\J	.	.	16f#/	.	16a/	.	8C#\J	.	.	.	.	.	.	.	.	.	.	.	.	.	.	.	.
.	.	.	16e/JJ	.	16a/JJ	.	.	.	.	.	.	.	.	.	.	.	.	.	.	.	.	.	.
=72	=72	=72	=72	=72	=72	=72	=72	=72	=72	=72	=72	=72	=72	=72	=72	=72	=72	=72	=72	=72	=72	=72	=72
4BB/	7_	.	16d/LL	.	(16a\LL	.	2BB/	.	.	2d\)	.	2a\	.	.	2ff#\	.	.	2ryy	.	.	2ff#\	2aa\	.
.	.	.	16d/	.	16dd\	.	.	.	.	.	.	.	.	.	.	.	.	.	.	.	.	.	.
.	.	.	16d/	.	16ff#\	.	.	.	.	.	.	.	.	.	.	.	.	.	.	.	.	.	.
.	x	.	16d/	.	16ee\JJ)	.	.	.	.	.	.	.	.	.	.	.	.	.	.	.	.	.	.
8r	.	.	16d/	.	(16dd\LL	.	.	.	.	.	.	.	.	.	.	.	.	.	.	.	.	.	.
.	.	.	16d/	.	16cc#\	.	.	.	.	.	.	.	.	.	.	.	.	.	.	.	.	.	.
8BB/	.	.	16d/	.	16b\	.	.	.	.	.	.	.	.	.	.	.	.	.	.	.	.	.	.
.	.	.	16d/JJ	.	16a\JJ)	.	.	.	.	.	.	.	.	.	.	.	.	.	.	.	.	.	.
!	!	!	!	!	!	!	!	!	!	!	!	!	!	!	!	!	!	!	!	!	!LO:LB:g=original	!	!
=73	=73	=73	=73	=73	=73	=73	=73	=73	=73	=73	=73	=73	=73	=73	=73	=73	=73	=73	=73	=73	=73	=73	=73
!	!	!	!	!	!	!	!	!	!	!	!	!	!	!	!	!	!	!	!LO:N:vis=0	!LO:N:vis=0	!	!	!
8E\L	7_	.	16g/LL	.	16g/LL	.	8E\L	.	.	2B\	.	2g\	.	.	2ff#\	.	.	2ryy	1r	1r	2ee\	2gg\	.
.	.	.	16a/	.	16g/	.	.	.	.	.	.	.	.	.	.	.	.	.	.	.	.	.	.
8D\	.	.	16b/	.	16g/	.	8D\	.	.	.	.	.	.	.	.	.	.	.	.	.	.	.	.
.	.	.	16a/JJ	.	16g/	.	.	.	.	.	.	.	.	.	.	.	.	.	.	.	.	.	.
8C#\	x	.	16g/LL	.	16g/	.	8C#\	.	.	.	.	.	.	.	.	.	.	.	.	.	.	.	.
.	.	.	16f#/	.	16g/	.	.	.	.	.	.	.	.	.	.	.	.	.	.	.	.	.	.
8BB\J	.	.	16e/	.	16g/	.	8BB\J	.	.	.	.	.	.	.	.	.	.	.	.	.	.	.	.
.	.	.	16d/JJ	.	16g/JJ	.	.	.	.	.	.	.	.	.	.	.	.	.	.	.	.	.	.
*	*	*	*	*	*Xtremolo	*	*	*	*	*	*	*	*	*	*	*	*	*	*	*	*	*	*
=74	=74	=74	=74	=74	=74	=74	=74	=74	=74	=74	=74	=74	=74	=74	=74	=74	=74	=74	=74	=74	=74	=74	=74
!	!	!	!	!	!LO:TX:a:t=P:problem:mixed beam	!	!	!	!	!	!	!	!	!	!	!	!	!	!	!	!	!	!
8AA/L	7	.	16c#/LL	.	(8g/L	.	8AA/L	.	.	2c#\	.	2g\	.	.	2ee\	.	.	2ryy	.	.	2ee\	2gg\	.
.	.	.	16c#/	.	.	.	.	.	.	.	.	.	.	.	.	.	.	.	.	.	.	.	.
8AA/	.	.	16c#/	.	16ee\L	.	8AA/	.	.	.	.	.	.	.	.	.	.	.	.	.	.	.	.
.	.	.	16c#/	.	16dd\JJ)	.	.	.	.	.	.	.	.	.	.	.	.	.	.	.	.	.	.
8BB/	.	.	16c#/	.	(16cc#\LL	.	8BB/	.	.	.	.	.	.	.	.	.	.	.	.	.	.	.	.
.	.	.	16c#/	.	16b\	.	.	.	.	.	.	.	.	.	.	.	.	.	.	.	.	.	.
8C#/J	.	.	16c#/	.	16a\	.	8C#/J	.	.	.	.	.	.	.	.	.	.	.	.	.	.	.	.
.	.	.	16c#/JJ	.	16g\JJ)	.	.	.	.	.	.	.	.	.	.	.	.	.	.	.	.	.	.
*	*	*	*Xtremolo	*	*	*	*	*	*	*	*	*	*	*	*	*	*	*	*	*	*	*	*
=75	=75	=75	=75	=75	=75	=75	=75	=75	=75	=75	=75	=75	=75	=75	=75	=75	=75	=75	=75	=75	=75	=75	=75
!	!	!	!LO:TX:a:t=P:problem:mixed beam	!	!LO:TX:a:t=P:problem:mixed beam	!	!	!	!	!	!	!	!	!	!	!	!	!	!	!	!LO:TX:a:t=P:problem:mixed beam	!	!
2D/ 2DD/	.	.	8d/L	.	8f#/L	.	[<2D\	.	.	(8d\L	.	8f#\L	.	.	2dd\	.	.	2ryy	4dd/ 4d/	4d/ 4D/	8dd\L	8ff#\L|	.
.	.	.	8bb\	.	16ddd\L	.	.	.	.	8B\	.	8dd\	.	.	.	.	.	.	.	.	8d/|	8dd'\	.
.	.	.	.	.	16dd\JJ	.	.	.	.	.	.	.	.	.	.	.	.	.	.	.	.	.	.
.	.	.	8aa\	.	16ccc#\LL	.	.	.	.	8A\	.	8cc#\	.	.	.	.	.	.	4r	4r	8d/|	8dd'\	.
.	.	.	.	.	16dd\	.	.	.	.	.	.	.	.	.	.	.	.	.	.	.	.	.	.
.	.	.	8gg\J	.	16bb\	.	.	.	.	8G\J)	.	8b\J	.	.	.	.	.	.	.	.	8d/J|	8dd'\J	.
.	.	.	.	.	16dd\JJ	.	.	.	.	.	.	.	.	.	.	.	.	.	.	.	.	.	.
!	!	!	!	!	!	!	!	!	!	!LO:LB:g=original	!	!LO:LB:g=original	!	!	!	!	!	!	!	!	!	!	!
=76	=76	=76	=76	=76	=76	=76	=76	=76	=76	=76	=76	=76	=76	=76	=76	=76	=76	=76	=76	=76	=76	=76	=76
*	*	*	*	*	*	*	*	*	*	*	*	*	*	*	*	*	*	*	*	*	*tremolo	*tremolo	*
!	!	!	!	!	!	!	!	!	!	!	!	!	!	!	!	!	!	!	!	!	!LO:SIC:o:s:=:v:4 kreski artykulacyjne	!LO:SIC:o:s:=:v:4 kreski artykulacyjne	!
2D/ 2DD/	.	.	8ff#\L	.	16aa\LL	.	2D\_<	.	.	(8F#/L	.	8a\L	.	.	2dd\	.	.	2ryy	4dd/ 4d/	4d/ 4D/	8d/L	8dd\L	.
.	.	.	.	.	16dd\	.	.	.	.	.	.	.	.	.	.	.	.	.	.	.	.	.	.
.	.	.	8gg\	.	16bb\	.	.	.	.	8G/	.	8b\	.	.	.	.	.	.	.	.	8d/	8dd\	.
.	.	.	.	.	16dd\JJ	.	.	.	.	.	.	.	.	.	.	.	.	.	.	.	.	.	.
.	.	.	8ff#\	.	16aa\LL	.	.	.	.	8F#/	.	8a\	.	.	.	.	.	.	4r	4r	8d/	8dd\	.
.	.	.	.	.	16dd\	.	.	.	.	.	.	.	.	.	.	.	.	.	.	.	.	.	.
.	.	.	8ee\J	.	16gg\	.	.	.	.	8E/J)	.	8g\J	.	.	.	.	.	.	.	.	8d/J	8dd\J	.
.	.	.	.	.	16dd\JJ	.	.	.	.	.	.	.	.	.	.	.	.	.	.	.	.	.	.
=77	=77	=77	=77	=77	=77	=77	=77	=77	=77	=77	=77	=77	=77	=77	=77	=77	=77	=77	=77	=77	=77	=77	=77
!	!	!	!	!	!LO:SIC:s:=:v:8ff#	!	!	!	!	!LO:TX:a:t=P:problem:mixed beam	!	!	!	!	!	!	!	!	!	!	!LO:SIC:o:s:=:v:4 kreski artykulacyjne	!LO:SIC:o:s:=:v:4 kreski artykulacyjne	!
2D/ 2DD/	.	.	8dd\L	.	8ee\L	.	2D\_<	.	.	(8D/L	.	8f#\L	.	.	2dd\	.	.	2ryy	4dd/ 4d/	4d/ 4D/	8d/L	8dd\L	.
.	.	.	8dd\	.	8bb\	.	.	.	.	8d\	.	8b\	.	.	.	.	.	.	.	.	8d/	8dd\	.
.	.	.	8cc#\	.	8aa\	.	.	.	.	8c#\	.	8a\	.	.	.	.	.	.	4r	4r	8d/	8dd\	.
.	.	.	8b\J	.	8gg\J	.	.	.	.	8B\J)	.	8g\J	.	.	.	.	.	.	.	.	8d/J	8dd\J	.
!	!	!	!	!	!LO:LB:g=original	!	!	!	!	!	!	!	!	!	!	!	!	!	!	!	!	!	!
=78	=78	=78	=78	=78	=78	=78	=78	=78	=78	=78	=78	=78	=78	=78	=78	=78	=78	=78	=78	=78	=78	=78	=78
!	!	!	!	!	!	!	!	!	!	!	!	!	!	!	!	!	!	!	!	!	!LO:SIC:o:s:=:v:4 kreski artykulacyjne	!LO:SIC:o:s:=:v:4 kreski artykulacyjne	!
2D/ 2DD/	.	.	8a/L	.	8ff#\L	.	2D\_<	.	.	(8A\L	.	8f#\L	.	.	2dd\	.	.	2ryy	4dd/ 4d/	4d/ 4D/	8d/L	8dd\L	.
.	.	.	8b/	.	8gg\	.	.	.	.	8B\	.	8g\	.	.	.	.	.	.	.	.	8d/	8dd\	.
.	.	.	8a/	.	8ff#\	.	.	.	.	8A\	.	8f#\	.	.	.	.	.	.	4r	4r	8d/	8dd\	.
.	.	.	8g/J	.	8ee\J	.	.	.	.	8G\J)	.	8e\J	.	.	.	.	.	.	.	.	8d/J	8dd\J	.
*	*	*	*	*	*	*	*	*	*	*	*	*	*	*	*	*	*	*	*	*	*Xtremolo	*Xtremolo	*
=79	=79	=79	=79	=79	=79	=79	=79	=79	=79	=79	=79	=79	=79	=79	=79	=79	=79	=79	=79	=79	=79	=79	=79
*^	*	*	*	*	*	*	*	*	*	*	*	*	*	*	*	*	*	*	*	*^	*	*	*
8D/ 8DD/	4ryy	8_	.	8f#/L	.	8dd\L|	.	2D\_<	.	.	(4F#/	.	8f#\L	.	.	8dd\L	.	.	2ryy	4dd/ 4d/	8d/	8F#\	(8dd\L|	8ff#X\L|	.
8r	.	.	.	16g/L	.	(16ee\L	.	.	.	.	.	.	16g\L	.	.	16ee\L	.	.	.	.	8r	8ryy	16ee\L	(16gg\L	.
.	.	.	.	16a/JJ	.	16ff#\JJ)	.	.	.	.	.	.	16a\JJ	.	.	16ff#\JJ	.	.	.	.	.	.	16ff#X\JJ)	16aa\JJ)	.
8D\	8DD/	.	.	8f#/L	.	8dd\L|	.	.	.	.	4d\)	.	8f#\L	.	.	8dd\L	.	.	.	4r	8d/	8F#\	(8dd\L|	8ff#\L|	.
8r	8ryy	.	.	16g/L	.	(16ee\L	.	.	.	.	.	.	16g\L	.	.	16ee\L	.	.	.	.	8r	8ryy	16ee\L	(16gg\L	.
.	.	.	.	16a/JJ	.	16ff#\JJ)	.	.	.	.	.	.	16a\JJ	.	.	16ff#\JJ	.	.	.	.	.	.	16ff#X\JJ)	16aa\JJ)	.
*	*	*	*	*	*	*	*	*	*	*	*	*	*	*	*	*	*	*	*	*	*v	*v	*	*	*
*v	*v	*	*	*	*	*	*	*	*	*	*	*	*	*	*	*	*	*	*	*	*	*	*	*
=80	=80	=80	=80	=80	=80	=80	=80	=80	=80	=80	=80	=80	=80	=80	=80	=80	=80	=80	=80	=80	=80	=80	=80
*	*	*	*	*	*	*	*	*	*	*	*	*	*	*	*	*	*	*	*	*^	*	*	*
8D/ 8DD/	_	.	4f#/	.	4dd\	.	4D\]	-son	.	4d\	-son	4f#\	-son	.	4dd\	-son	.	2ryy	4dd/ 4d/	4d/	4F#\	4dd\	4ff#\|	.
8ryy	.	.	.	.	.	.	.	.	.	.	.	.	.	.	.	.	.	.	.	.	.	.	.	.
4r	x	.	4r	.	4r	.	4r	.	.	4r	.	4r	.	.	4r	.	.	.	4r	4rvyy	4ryy	4ryy	4ryy	.
*	*	*	*	*	*	*	*	*	*	*	*	*	*	*	*	*	*	*	*	*v	*v	*	*	*
==	==	==	==	==	==	==	==	==	==	==	==	==	==	==	==	==	==	==	==	==	==	==	==
*-	*-	*-	*-	*-	*-	*-	*-	*-	*-	*-	*-	*-	*-	*-	*-	*-	*-	*-	*-	*-	*-	*-	*-
!!!system-decoration: [(s1,s2)][(s3,s4)][(s5)][(s6,s7,s8,s9)][(s10,s11)]s12
!!!RDF**kern: > = above
!!!RDF**kern: < = below
!!!RDF**dynam: p = p:
!!!RDF**dynam: f = f:
!!!EED: Leszek Kubiak
!!!EST: 2020-12-17
!!!AIN: 1 alto 2 clars 1 cor 2 empty 1 organ 1 tenor 1 timpa 2 violn 1 vox
!!!ENC: Andrzej Borzym
!!!END: 2020-06-23
!!!RDF**kern: | = vertical stroke
